!!!COM: Vivaldi, Antonio
!!!OTL: Concerto a violino solo, No. 11
!!!XEN: Violin Concerto No. 11 in D major
!!!OPR: Il Cimento dell'armonia e dell'inventione
!!!XEN: The Contest of Harmony and Invention
!!!OPS: Opus 8
!!!ONM: No. 11
!!!OMV: Movement 1.
!!!YEC: Copyright 1996, Center for Computer Assisted Research in the Humanities
!!!YEM: Rights to all derivative electronic formats reserved.
!!!YEM: Refer to licensing agreement for important restrictions.
!!!OMD: Allegro
**kern	**kern	**kern	**kern	**kern	**Bnum
*Icello	*Iviola	*Ivioln	*Ivioln	*Ivioln	*Icemba
*Icemba	*	*	*	*	*
*ICstr	*ICstr	*ICstr	*ICstr	*ICstr	*ICklav
*ICklav	*	*	*	*	*
!cello	!viola 	!violino 2	!violino 1	!violino principale	!continuo
!basso continuo	!	!	!	!	!
*clefF4	*clefC3	*clefG2	*clefG2	*clefG2	*
*k[f#c#]	*k[f#c#]	*k[f#c#]	*k[f#c#]	*k[f#c#]	*k[f#c#]
*D:	*D:	*D:	*D:	*D:	*D:
*M4/4	*M4/4	*M4/4	*M4/4	*M4/4	*M4/4
*>Amsterdam[1,2a,3,4a,5]	*>Amsterdam[1,2a,3,4a,5]	*>Amsterdam[1,2a,3,4a,5]	*>Amsterdam[1,2a,3,4a,5]	*>Amsterdam[1,2a,3,4a,5]	*>Amsterdam[1,2a,3,4a,5]
*>Turin1[1,2b,3,4a,5]	*>Turin1[1,2b,3,4a,5]	*>Turin1[1,2b,3,4a,5]	*>Turin1[1,2b,3,4a,5]	*>Turin1[1,2b,3,4a,5]	*>Turin1[1,2b,3,4a,5]
*>Turin2[1,2a,3,4b,5]	*>Turin2[1,2a,3,4b,5]	*>Turin2[1,2a,3,4b,5]	*>Turin2[1,2a,3,4b,5]	*>Turin2[1,2a,3,4b,5]	*>Turin2[1,2a,3,4b,5]
*>Turin3[1,2b,3,4b,5]	*>Turin3[1,2b,3,4b,5]	*>Turin3[1,2b,3,4b,5]	*>Turin3[1,2b,3,4b,5]	*>Turin3[1,2b,3,4b,5]	*>Turin3[1,2b,3,4b,5]
*>1	*>1	*>1	*>1	*>1	*>1
=1-	=1-	=1-	=1-	=1-	=1-
1r	1r	1r	4dd\	4dd\	.
.	.	.	4dd\	4dd\	.
.	.	.	[4dd\	[4dd\	.
.	.	.	16dd\LL]	16dd\LL]	.
.	.	.	16ee\	16ee\	.
.	.	.	16ff#\	16ff#\	.
.	.	.	16gg\JJ	16gg\JJ	.
=2	=2	=2	=2	=2	=2
1r	1r	1r	8aa\L	8aa\L	.
.	.	.	8aa\J	8aa\J	.
.	.	.	16aa\LL	16aa\LL	.
.	.	.	16gg\	16gg\	.
.	.	.	16ff#\	16ff#\	.
.	.	.	16ee\JJ	16ee\JJ	.
.	.	.	8dd\L	8dd\L	.
.	.	.	8dd\J	8dd\J	.
.	.	.	16dd\LL	16dd\LL	.
.	.	.	16ee\	16ee\	.
.	.	.	16ff#\	16ff#\	.
.	.	.	16gg\JJ	16gg\JJ	.
=3	=3	=3	=3	=3	=3
1r	1r	4a/	1aa\	1aa\	.
.	.	4a/	.	.	.
.	.	[4a/	.	.	.
.	.	16a\LL]	.	.	.
.	.	16b\	.	.	.
.	.	16cc#\	.	.	.
.	.	16dd\JJ	.	.	.
=4	=4	=4	=4	=4	=4
1r	1r	8ee\L	1gg\	1gg\	.
.	.	8ee\J	.	.	.
.	.	16ee\LL	.	.	.
.	.	16dd\	.	.	.
.	.	16cc#\	.	.	.
.	.	16b\JJ	.	.	.
.	.	8a/L	.	.	.
.	.	8a/J	.	.	.
.	.	16a\LL	.	.	.
.	.	16a\	.	.	.
.	.	16b\	.	.	.
.	.	16cc#\JJ	.	.	.
=5	=5	=5	=5	=5	=5
1r	4d\	1dd\	1ff#\	1ff#\	.
.	4d\	.	.	.	.
.	[4d\	.	.	.	.
.	16d\LL]	.	.	.	.
.	16e\	.	.	.	.
.	16f#\	.	.	.	.
.	16g\JJ	.	.	.	.
=6	=6	=6	=6	=6	=6
1r	8a\L	2cc#\	2ee\	2ee\	.
.	8a\J	.	.	.	.
.	16a\LL	.	.	.	.
.	16g\	.	.	.	.
.	16f#\	.	.	.	.
.	16e\JJ	.	.	.	.
.	8d\L	2dd\	2ff#\	2ff#\	.
.	8d\J	.	.	.	.
.	16d\LL	.	.	.	.
.	16e\	.	.	.	.
.	16f#\	.	.	.	.
.	16g\JJ	.	.	.	.
=7	=7	=7	=7	=7	=7
4AA/	1a\	[1cc#\	4ee\	4ee\	.
4AA/	.	.	4ee\	4ee\	.
[4AA/	.	.	[4ee\	[4ee\	.
16AA/LL]	.	.	16ee\LL]	16ee\LL]	.
16BB/	.	.	16dd\	16dd\	.
16C#/	.	.	16ee\	16ee\	6
16D/JJ	.	.	16ff#\JJ	16ff#\JJ	.
=8	=8	=8	=8	=8	=8
8E\L	1g\	1cc#\]	8gg\L	8gg\L	6
8E\J	.	.	8gg\J	8gg\J	.
16E/LL	.	.	16gg\LL	16gg\LL	.
16D/	.	.	16ff#\	16ff#\	.
16C#/	.	.	16ee\	16ee\	.
16BB/JJ	.	.	16dd\JJ	16dd\JJ	.
8AA/L	.	.	8ee\L	8ee\L	7
8AA/J	.	.	8ee\J	8ee\J	.
16AA/LL	.	.	16ee\LL	16ee\LL	.
16AA/	.	.	16cc#\	16cc#\	.
16BB/	.	.	16dd\	16dd\	.
16C#/JJ	.	.	16ee\JJ	16ee\JJ	.
=9	=9	=9	=9	=9	=9
2D\	2f#\	8dd\L	8a\L	8a\L	.
.	.	16ff#\L	16aa\L	16aa\L	.
.	.	16ee\JJ	16gg\JJ	16gg\JJ	.
.	.	8ff#\L	8aa\L	8aa\L	.
.	.	8dd\J	8ff#\J	8ff#\J	.
2r	2r	8ee\L	8gg\L	8gg\L	.
.	.	16ee\L	16gg\L	16gg\L	.
.	.	16dd\JJ	16ff#\JJ	16ff#\JJ	.
.	.	8ee\L	8gg\L	8gg\L	.
.	.	8a\J	8ee\J	8ee\J	.
=10	=10	=10	=10	=10	=10
8r	8r	2dd\	2ff#\	2ff#\	.
16F#\LL	16a\LL	.	.	.	6
16E\JJ	16g\JJ	.	.	.	.
8F#\L	8a\L	.	.	.	6
8D\J	8f#\J	.	.	.	.
8E\L	8g\L	2r	2r	2r	7
16E\L	16g\L	.	.	.	.
16D\JJ	16f#\JJ	.	.	.	.
8E/L	8g\L	.	.	.	6
8AA/J	8e\J	.	.	.	7
=11	=11	=11	=11	=11	=11
2D\	2f#\	8r	8r	8r	.
.	.	16ff#\LL	16aa\LL	16aa\LL	.
.	.	16ee\JJ	16gg\JJ	16gg\JJ	.
.	.	8ff#\L	8aa\L	8aa\L	.
.	.	8dd\J	8ff#\J	8ff#\J	.
2r	2r	8ee\L	8gg\L	8gg\L	.
.	.	16ee\L	16gg\L	16gg\L	.
.	.	16dd\JJ	16ff#\JJ	16ff#\JJ	.
.	.	8ee\L	8gg\L	8gg\L	.
.	.	8a\J	8ee\J	8ee\J	.
=12	=12	=12	=12	=12	=12
8r	8r	2dd\	2ff#\	2ff#\	.
16F#\LL	16a\LL	.	.	.	6
16E\JJ	16g\JJ	.	.	.	.
8F#\L	8a\L	.	.	.	.
8D\J	8f#\J	.	.	.	.
8E\L	8g\L	2r	2r	2r	7
16E\L	16g\L	.	.	.	.
16D\JJ	16f#\JJ	.	.	.	.
8E/L	8g\L	.	.	.	6
8AA/J	8e\J	.	.	.	7
=13	=13	=13	=13	=13	=13
8D\L	8f#\L	4dd\	4ff#\	4ff#\	.
8d\	8a\	.	.	.	.
8A\	8f#\	4dd\	4ff#\	4ff#\	6 4
8F#\J	8d\J	.	.	.	.
8D\L	8A\L	[4dd\	[4ff#\	[4ff#\	.
8d\	8a\	.	.	.	.
8A\	8f#\	16dd\LL]	16ff#\LL]	16ff#\LL]	6 4
.	.	16cc#\	16ee\	16ee\	.
8F#\J	8d\J	16dd\	16ff#\	16ff#\	.
.	.	16ee\JJ	16gg\JJ	16gg\JJ	.
=14	=14	=14	=14	=14	=14
4D\	4A/	8ff#\L	8aa\L	8aa\L	.
.	.	8ff#\J	8aa\J	8aa\J	.
8r	8r	16ff#\LL	16aa\LL	16aa\LL	.
.	.	16ee\	16gg\	16gg\	.
8A\	8A/	16dd\	16ff#\	16ff#\	.
.	.	16cc#\JJ	16ee\JJ	16ee\JJ	.
8D\L	8A\L	4dd\	4ff#\	4ff#\	.
8d\	8a\	.	.	.	.
8A\	8f#\	4dd\	4ff#\	4ff#\	6 4
8F#\J	8d\J	.	.	.	.
=15	=15	=15	=15	=15	=15
8D\L	8A\L	[4dd\	[4ff#\	[4ff#\	.
8d\	8a\	.	.	.	.
8A\	8f#\	16dd\LL]	16ff#\LL]	16ff#\LL]	6 4
.	.	16cc#\	16ee\	16ee\	.
8F#\J	8d\J	16dd\	16ff#\	16ff#\	.
.	.	16ee\JJ	16gg\JJ	16gg\JJ	.
4D\	4A/	8ff#\L	8aa\L	8aa\L	.
.	.	8ff#\J	8aa\J	8aa\J	.
8r	8r	16ff#\LL	16aa\LL	16aa\LL	.
.	.	16ee\	16gg\	16gg\	.
8A\	8A/	16dd\	16ff#\	16ff#\	.
.	.	16cc#\JJ	16ee\JJ	16ee\JJ	.
=16	=16	=16	=16	=16	=16
4D\	4A/	4dd\	4ff#\	4ff#\	.
4r	8r	8r	8r	8r	.
.	8dd\	8ffn\	8bb-\	8bb-\	.
2r	8dd\	8ee\	(8gg#\	(8gg#\	.
.	4ccn\	4ee\	4aa\	4aa\	.
.	8g\	8b-\	8bb-\)	8bb-\)	.
=17	=17	=17	=17	=17	=17
1r	8g\	8a/	(8cc#\	(8cc#\	.
.	4fn\	4a/	4dd\	4dd\	.
.	8ccn\	8ee-\	8aa\)	8aa\)	.
.	8cc\	8dd\	(8ff#\	(8ff#\	.
.	4b-\	4dd\	4gg\	4gg\	.
.	8f\	8dd\	8aa\)	8aa\)	.
=18	=18	=18	=18	=18	=18
1r	8fn\	8g/	(8b\	(8b\	.
.	4e\	4g/	4ccn\	4ccn\	.
.	8b-\	8dd\	8gg\)	8gg\)	.
.	8b-\	8ccn\	(8ee\	(8ee\	.
.	4a\	4cc\	4ffn\	4ffn\	.
.	8e-\	8cc\	8gg\)	8gg\)	.
=19	=19	=19	=19	=19	=19
1r	8e-\	8fn/	(8a/	(8a/	.
.	4d\	4f/	4b-\	4b-\	.
.	8a\	8ccn\	8ffn\)	8ffn\)	.
.	8a\	8b-\	(8dd\	(8dd\	.
.	4g\	4b-\	4ee-\	4ee-\	.
.	8g\	8b-\	8gg\)	8gg\)	.
=20	=20	=20	=20	=20	=20
4r	8g\	8a/	8cc#\	(8cc#\	.
.	4f#\	4a/	4dd\	4dd\	.
8r	.	.	.	.	.
8AA/	8c#\	8aa\	8aa\	8aa\)	.
8D\L	8A\L	8ff#\L	8ff#\L	8ff#\L	.
8F#\	8a\	16ee\L	16ee\L	16ee\L	6
.	.	16dd\JJ	16dd\JJ	16dd\JJ	.
8G\	8b\	8ee\L	8ee\L	8ee\L	6 5
8A\J	8e\J	8cc#\J	8cc#\J	8cc#\J	.
=21	=21	=21	=21	=21	=21
16AA/LL	16c#\LL	4e/	4g/	4g/	.
16BB/	16d\	.	.	.	.
16C#/	16e\	.	.	.	.
16D/JJ	16f#\JJ	.	.	.	.
16E/LL	16g\LL	4e/	4g/	4g/	.
16D/	16f#\	.	.	.	.
16C#/	16e\	.	.	.	.
16BB/JJ	16d\JJ	.	.	.	.
16AA/LL	16c#\LL	4.e/	4.g/	4.g/	7
16BB/	16d\	.	.	.	.
16C#/	16e\	.	.	.	.
16D/JJ	16f#\JJ	.	.	.	.
16E/LL	16g\LL	.	.	.	.
16C#/	16e\	.	.	.	.
16BB/	16d\	8aa\	8aa\	8aa\	.
16AA/JJ	16c#\JJ	.	.	.	.
=22	=22	=22	=22	=22	=22
8D\L	8A\L	8ff#\L	8ff#\L	8ff#\L	.
8F#\	8a\	16ee\L	16ee\L	16ee\L	6
.	.	16dd\JJ	16dd\JJ	16dd\JJ	.
8G\	8b\	8ee\L	8ee\L	8ee\L	6 5
8A\J	8e\J	8cc#\J	8cc#\J	8cc#\J	.
16AA/LL	16c#\LL	4e/	4g/	4g/	.
16BB/	16d\	.	.	.	.
16C#/	16e\	.	.	.	.
16D/JJ	16f#\JJ	.	.	.	.
16E/LL	16g\LL	4e/	4g/	4g/	.
16D/	16f#\	.	.	.	.
16C#/	16e\	.	.	.	.
16BB/JJ	16d\JJ	.	.	.	.
=23	=23	=23	=23	=23	=23
16AA/LL	16c#\LL	4.e/	4.g/	4.g/	7
16BB/	16d\	.	.	.	.
16C#/	16e\	.	.	.	.
16D/JJ	16f#\JJ	.	.	.	.
16E/LL	16g\LL	.	.	.	.
16C#/	16e\	.	.	.	.
16BB/	16d\	8aa\	8aa\	8aa\	.
16AA/JJ	16c#\JJ	.	.	.	.
8D\L	8A\L	8ff#\L	8ff#\L	8ff#\L	.
8F#\	8a\	16ee\L	16ee\L	16ee\L	6
.	.	16dd\JJ	16dd\JJ	16dd\JJ	.
8G\	8b\	8ee\L	8ee\L	8ee\L	6 5
8A\J	8e\J	8cc#\J	8cc#\J	8cc#\J	.
=24	=24	=24	=24	=24	=24
4D\	4f#\	4dd\	4dd\	16ff#\LL	.
.	.	.	.	16dd\	.
.	.	.	.	16d\	.
.	.	.	.	16dd\JJ	.
4r	4r	4r	4r	16ff#\LL	.
.	.	.	.	16gg\	.
.	.	.	.	16aa\	.
.	.	.	.	16gg\JJ	.
4D\	2r	2r	2r	16ff#\LL	.
.	.	.	.	16dd\	.
.	.	.	.	16d\	.
.	.	.	.	16dd\JJ	.
4r	.	.	.	16ff#\LL	.
.	.	.	.	16gg\	.
.	.	.	.	16aa\	.
.	.	.	.	16gg\JJ	.
=25	=25	=25	=25	=25	=25
4D\	1r	1r	1r	16ff#\LL	.
.	.	.	.	16dd\	.
.	.	.	.	16d\	.
.	.	.	.	16ff#\JJ	.
4r	.	.	.	16aa\LL	.
.	.	.	.	16bb\	.
.	.	.	.	16ccc#\	.
.	.	.	.	16aa\JJ	.
4D\	.	.	.	16ddd\LL	.
.	.	.	.	16ff#\	.
.	.	.	.	16d\	.
.	.	.	.	16ff#\JJ	.
4r	.	.	.	16aa\LL	.
.	.	.	.	16bb\	.
.	.	.	.	16ccc#\	.
.	.	.	.	16aa\JJ	.
=26	=26	=26	=26	=26	=26
4D\	1r	1r	1r	16ddd\LL	.
.	.	.	.	16ff#\	.
.	.	.	.	16d\	.
.	.	.	.	16ff#\JJ	.
4r	.	.	.	16aa\LL	.
.	.	.	.	16bb\	.
.	.	.	.	16ccc#\	.
.	.	.	.	16aa\JJ	.
8D\L	.	.	.	4ddd\ 4ff#\ 4d\	.
8D\J	.	.	.	.	.
16A\LL	.	.	.	4r	.
16G\	.	.	.	.	.
16F#\	.	.	.	.	.
16E\JJ	.	.	.	.	.
=27	=27	=27	=27	=27	=27
4D\	1r	1r	1r	16aa\LL	.
.	.	.	.	16ff#\	.
.	.	.	.	16d\	.
.	.	.	.	16ff#\JJ	.
4r	.	.	.	16aa\LL	.
.	.	.	.	16bb\	.
.	.	.	.	16cccn\	.
.	.	.	.	16aa\JJ	.
4G\	.	.	.	16bb\LL	.
.	.	.	.	16gg\	.
.	.	.	.	16d\	.
.	.	.	.	16gg\JJ	.
4r	.	.	.	16bb\LL	.
.	.	.	.	16ccc\	.
.	.	.	.	16ddd\	.
.	.	.	.	16bb\JJ	.
=28	=28	=28	=28	=28	=28
4F#\	1r	1r	1r	16aa\LL	6 n5
.	.	.	.	16ff#\	.
.	.	.	.	16d\	.
.	.	.	.	16ff#\JJ	.
4r	.	.	.	16aa\LL	.
.	.	.	.	16bb\	.
.	.	.	.	16cccn\	.
.	.	.	.	16aa\JJ	.
4E\	.	.	.	16gg\LL	6
.	.	.	.	16ee\	.
.	.	.	.	16d\	.
.	.	.	.	16ee\JJ	.
4r	.	.	.	16gg\LL	.
.	.	.	.	16aa\	.
.	.	.	.	16bb\	.
.	.	.	.	16gg\JJ	.
=29	=29	=29	=29	=29	=29
4D\	1r	1r	1r	16ff#\LL	.
.	.	.	.	16dd\	.
.	.	.	.	16d\	.
.	.	.	.	16dd\JJ	.
4r	.	.	.	16ff#\LL	.
.	.	.	.	16gg\	.
.	.	.	.	16aa\	.
.	.	.	.	16ff#\JJ	.
4AA/	.	.	.	16ee\LL	.
.	.	.	.	16cc#\	.
.	.	.	.	16a\	.
.	.	.	.	16cc#\JJ	.
4C#/	.	.	.	16ee\LL	6 5
.	.	.	.	16ff#\	.
.	.	.	.	16gg\	.
.	.	.	.	16ee\JJ	.
=30	=30	=30	=30	=30	=30
4D\	1r	1r	1r	16aa\LL	.
.	.	.	.	16ff#\	.
.	.	.	.	16d\	.
.	.	.	.	16ff#\JJ	.
4r	.	.	.	16aa\LL	.
.	.	.	.	16bb\	.
.	.	.	.	16cccn\	.
.	.	.	.	16aa\JJ	.
4G\	.	.	.	16bb\LL	.
.	.	.	.	16gg\	.
.	.	.	.	16d\	.
.	.	.	.	16gg\JJ	.
4r	.	.	.	16bb\LL	.
.	.	.	.	16ccc\	.
.	.	.	.	16ddd\	.
.	.	.	.	16bb\JJ	.
=31	=31	=31	=31	=31	=31
4F#\	1r	1r	1r	16aa\LL	6 n5
.	.	.	.	16ff#\	.
.	.	.	.	16d\	.
.	.	.	.	16ff#\JJ	.
4r	.	.	.	16aa\LL	.
.	.	.	.	16bb\	.
.	.	.	.	16cccn\	.
.	.	.	.	16aa\JJ	.
4E\	.	.	.	16gg\LL	6
.	.	.	.	16ee\	.
.	.	.	.	16d\	.
.	.	.	.	16ee\JJ	.
4r	.	.	.	16gg\LL	.
.	.	.	.	16aa\	.
.	.	.	.	16bb\	.
.	.	.	.	16gg\JJ	.
=32	=32	=32	=32	=32	=32
4D\	1r	1r	1r	16ff#\LL	.
.	.	.	.	16dd\	.
.	.	.	.	16d\	.
.	.	.	.	16dd\JJ	.
4r	.	.	.	16ff#\LL	.
.	.	.	.	16gg\	.
.	.	.	.	16aa\	.
.	.	.	.	16ff#\JJ	.
8A\L	.	.	.	4ee\ 4cc#\ 4a\	.
8G\	.	.	.	.	.
8F#\	.	.	.	4r	6
8E\J	.	.	.	.	.
=33	=33	=33	=33	=33	=33
4D\	1r	1r	1r	8.aa\L	.
.	.	.	.	32bb\LL	.
.	.	.	.	32aa\JJJ	.
4F#\	.	.	.	8ddd\L	6
.	.	.	.	8aaT\J	.
4G\	.	.	.	8.bb\L	.
.	.	.	.	32ccc#\LL	.
.	.	.	.	32bb\JJJ	.
4G#\	.	.	.	8eee\L	6 5
.	.	.	.	8bbT\J	.
=34	=34	=34	=34	=34	=34
4A\	1r	1r	1r	8.ccc#\L	.
.	.	.	.	32ddd\LL	.
.	.	.	.	32ccc#\JJJ	.
4A#\	.	.	.	8fff#\L	6 5
.	.	.	.	8ccc#t\J	.
4B\	.	.	.	8.ddd\L	5
.	.	.	.	32eee\LL	.
.	.	.	.	32ddd\JJJ	.
4B\	.	.	.	8ggg\L	6
.	.	.	.	8dddT\J	.
=35	=35	=35	=35	=35	=35
4c#\	1r	1r	1r	8.eee\L	5
.	.	.	.	32fff#\LL	.
.	.	.	.	32eee\JJJ	.
4c#\	.	.	.	8aaa\L	6 5
.	.	.	.	8eeeT\J	.
8d\L	.	.	.	4fff#\	.
8D\	.	.	.	.	.
8F#\	.	.	.	8r	6
8D\J	.	.	.	8aa\	.
=36	=36	=36	=36	=36	=36
8G\L	1r	1r	1r	(8.bb\L	.
8A\	.	.	.	.	.
.	.	.	.	16ccc#\Jk	.
8B\	.	.	.	8.ddd\L)	6
8c#\J	.	.	.	.	.
.	.	.	.	32ccc#\LL	.
.	.	.	.	32bb\JJJ	.
4d\	.	.	.	8aa\L	.
.	.	.	.	16gg\L	.
.	.	.	.	16ff#\JJ	.
4r	.	.	.	8ee\L	.
.	.	.	.	16ff#\L	.
.	.	.	.	16dd\JJ	.
=37	=37	=37	=37	=37	=37
8d\L	1r	1r	1r	(4bb\	.
8D\	.	.	.	.	.
8F#\	.	.	.	8aa\L)	6
8D\J	.	.	.	8aa\J	.
8G\L	.	.	.	(8.bb\L	.
8A\	.	.	.	.	.
.	.	.	.	16ccc#\Jk	.
8B\	.	.	.	8.ddd\L)	6
8c#\J	.	.	.	.	.
.	.	.	.	32ccc#\LL	.
.	.	.	.	32bb\JJJ	.
=38	=38	=38	=38	=38	=38
4d\	1r	1r	1r	8aa\L	.
.	.	.	.	16gg\L	.
.	.	.	.	16ff#\JJ	.
4r	.	.	.	8ee\L	.
.	.	.	.	16ff#\L	.
.	.	.	.	16dd\JJ	.
8d\L	.	.	.	(4bb\	.
8D\	.	.	.	.	.
8F#\	.	.	.	8aa\L)	6
8D\J	.	.	.	8aa\J	.
=39	=39	=39	=39	=39	=39
4.G#\	1r	1r	1r	(16bb\LL	6 5
.	.	.	.	16aa\)	.
.	.	.	.	(16gg#\	.
.	.	.	.	16ff#\JJ)	.
.	.	.	.	8ee\L	.
8E\	.	.	.	8dd\J	7
8A\L	.	.	.	8ddT\L	.
8B\	.	.	.	8cc#\J	.
8c#\	.	.	.	8r	6
8A\J	.	.	.	8a/	.
=40	=40	=40	=40	=40	=40
! Tasto solo	!	!	!	!	!
[1E\	1r	1r	1r	(16g#/LL	#
.	.	.	.	16a/)	.
.	.	.	.	(16b/	.
.	.	.	.	16a/JJ)	.
.	.	.	.	(16cc#\LL	.
.	.	.	.	16b\)	.
.	.	.	.	(16dd\	.
.	.	.	.	16cc#\JJ)	.
.	.	.	.	(4ee\	.
.	.	.	.	8dd\L)	.
.	.	.	.	(16cc#\L	.
.	.	.	.	16b\JJ)	.
=41	=41	=41	=41	=41	=41
2E_\	1r	1r	1r	(16dd\LL	.
.	.	.	.	16cc#\)	.
.	.	.	.	(16ee\	.
.	.	.	.	16dd\JJ)	.
.	.	.	.	(16ff#\LL	.
.	.	.	.	16ee\)	.
.	.	.	.	(16gg#\	.
.	.	.	.	16ff#\JJ)	.
8E\L]	.	.	.	(4aa\	.
8c#\	.	.	.	.	6
8B\	.	.	.	8gg#\L)	6\
8A\J	.	.	.	(16ff#\L	.
.	.	.	.	16ee\JJ)	.
=42	=42	=42	=42	=42	=42
8G#\L	1r	1r	1r	8.ddd\L	6 5
8A\	.	.	.	.	.
.	.	.	.	32ccc#\LL	.
.	.	.	.	32bb\JJJ	.
8e\	.	.	.	4bbT\	4
8E\J	.	.	.	.	#
8A\L	.	.	.	4aa\	.
8B\	.	.	.	.	.
8c#\	.	.	.	8r	6
8A\J	.	.	.	8a/	.
=43	=43	=43	=43	=43	=43
! Tasto solo	!	!	!	!	!
[1E\	1r	1r	1r	(16g#/LL	#
.	.	.	.	16a/)	.
.	.	.	.	(16b/	.
.	.	.	.	16a/JJ)	.
.	.	.	.	(16cc#\LL	.
.	.	.	.	16b\)	.
.	.	.	.	(16dd\	.
.	.	.	.	16cc#\JJ)	.
.	.	.	.	(4ee\	.
.	.	.	.	8dd\L)	.
.	.	.	.	(16cc#\L	.
.	.	.	.	16b\JJ)	.
=44	=44	=44	=44	=44	=44
2E_\	1r	1r	1r	(16dd\LL	.
.	.	.	.	16cc#\)	.
.	.	.	.	(16ee\	.
.	.	.	.	16dd\JJ)	.
.	.	.	.	(16ff#\LL	.
.	.	.	.	16ee\)	.
.	.	.	.	(16gg#\	.
.	.	.	.	16ff#\JJ)	.
8E\L]	.	.	.	(4aa\	.
8c#\	.	.	.	.	6
8B\	.	.	.	8gg#\L)	6\
8A\J	.	.	.	(16ff#\L	.
.	.	.	.	16ee\JJ)	.
=45	=45	=45	=45	=45	=45
8G#\L	2r	1r	2r	(16ddd\LL	6 5
.	.	.	.	16bb\)	.
8A\	.	.	.	(16ccc#\	.
.	.	.	.	16aa\JJ)	.
8e\	.	.	.	4bbT\	4
8E\J	.	.	.	.	#
8AA\L	8c#\L	.	4a/	4a\ 4aa/	.
8A\	8cc#\	.	.	.	.
8E\	8a\	.	4a/	4a/	6 4
8C#\J	8e\J	.	.	.	.
=46	=46	=46	=46	=46	=46
8AA\L	8c#\L	1r	[4a/	[4a/	.
8A\	8cc#\	.	.	.	.
8E\	8a\	.	16a\LL]	16a\LL]	6 4
.	.	.	16b\	16b\	.
8C#\J	8e\J	.	16cc#\	16cc#\	.
.	.	.	16dd\JJ	16dd\JJ	.
4AA/	4c#\	.	8ee\L	8ee\L	.
.	.	.	8ee\J	8ee\J	.
4r	4r	.	16ee\LL	16ee\LL	.
.	.	.	16dd\	16dd\	.
.	.	.	16cc#\	16cc#\	.
.	.	.	16b\JJ	16b\JJ	.
=47	=47	=47	=47	=47	=47
4AA/	4c#\	2r	8a/L	8a/L	.
.	.	.	8a/J	8a/J	.
4r	4r	.	16a\LL	16a\LL	.
.	.	.	16b\	16b\	.
.	.	.	16cc#\	16cc#\	.
.	.	.	16dd\JJ	16dd\JJ	.
8E\L	8B\L	4e/	[2ee\	[2ee\	#
8e\	8g#\	.	.	.	.
8B\	8e\	4e/	.	.	6 4
8G#\J	8B\J	.	.	.	.
=48	=48	=48	=48	=48	=48
8E\L	8G#\L	[4e/	2ee\]	2ee\]	.
8e\	8g#\	.	.	.	.
8B\	8e\	16e/LL]	.	.	6 4
.	.	16f#/	.	.	.
8G#\J	8B\J	16g#/	.	.	.
.	.	16a/JJ	.	.	.
4E\	4G#/	8b\L	[2dd\	[2dd\	7 #
.	.	8b\J	.	.	.
4r	4r	16b/LL	.	.	.
.	.	16a/	.	.	.
.	.	16g#/	.	.	.
.	.	16f#/JJ	.	.	.
=49	=49	=49	=49	=49	=49
4E\	4G#/	8e/L	2dd\]	2dd\]	7 #
.	.	8e/J	.	.	.
4r	4r	16e/LL	.	.	.
.	.	16e/	.	.	.
.	.	16f#/	.	.	.
.	.	16g#/JJ	.	.	.
8AA\L	4A/	[2a/	[2cc#\	[2cc#\	.
8A\	.	.	.	.	.
8E\	4A/	.	.	.	6 4
8C#\J	.	.	.	.	.
=50	=50	=50	=50	=50	=50
8AA/L	[4A/	2a/]	2cc#\]	2cc#\]	.
8A/	.	.	.	.	.
8C#/	16A/LL]	.	.	.	6
.	16B/	.	.	.	.
8AA/J	16c#/	.	.	.	.
.	16d/JJ	.	.	.	.
4EE/	8e\L	2g#/	2b\	2b\	#
.	8e\J	.	.	.	.
4r	16e\LL	.	.	.	.
.	16d\	.	.	.	.
.	16c#\	.	.	.	.
.	16B\JJ	.	.	.	.
=51	=51	=51	=51	=51	=51
4A\	8A/L	2a/	2cc#\	2cc#\	.
.	8A/J	.	.	.	.
4r	16A/LL	.	.	.	.
.	16B/	.	.	.	.
.	16c#/	.	.	.	.
.	16d/JJ	.	.	.	.
4E\	[2e\	[2g#/	4b\	4b\	#
4E\	.	.	4b\	4b\	.
=52	=52	=52	=52	=52	=52
[4E\	2e\]	1g#/]	[4b\	[4b\	#
16E\LL]	.	.	16b\LL]	16b\LL]	.
16F#\	.	.	16a\	16a\	.
16G#\	.	.	16b\	16b\	.
16A\JJ	.	.	16cc#\JJ	16cc#\JJ	.
8B\L	[2d\	.	8dd\L	8dd\L	6\
8B\J	.	.	8dd\J	8dd\J	.
16B\LL	.	.	16dd\LL	16dd\LL	.
16A\	.	.	16cc#\	16cc#\	.
16G#\	.	.	16b\	16b\	.
16F#\JJ	.	.	16a\JJ	16a\JJ	.
=53	=53	=53	=53	=53	=53
8E\L	2d\]	2b\	8g#/L	8g#/L	7 #
8E\J	.	.	8g#/J	8g#/J	.
16E\LL	.	.	16g#/LL	16g#/LL	.
16E\	.	.	16g#/	16g#/	.
16F#\	.	.	16a/	16a/	.
16G#\JJ	.	.	16b/JJ	16b/JJ	.
8A\L	8c#\L	4a/	4cc#\	4cc#\	.
8A\	8e\	.	.	.	.
8E\	8c#\	4a/	4cc#\	4cc#\	6 4
8C#\J	8A\J	.	.	.	.
=54	=54	=54	=54	=54	=54
8AA\L	8e\L	[4a/	[4cc#\	[4cc#\	.
8A\	8e\	.	.	.	.
8E\	8c#\	16a/LL]	16cc#\LL]	16cc#\LL]	6 4
.	.	16g#/	16b\	16b\	.
8C#\J	8A\J	16a/	16cc#\	16cc#\	.
.	.	16b/JJ	16dd\JJ	16dd\JJ	.
4AA/	4E/	8cc#\L	8ee\L	8ee\L	.
.	.	8cc#\J	8ee\J	8ee\J	.
8r	8r	16cc#/LL	16ee\LL	16ee\LL	.
.	.	16b/	16dd\	16dd\	.
8E\	8E/	16a/	16cc#\	16cc#\	.
.	.	16g#/JJ	16b\JJ	16b\JJ	.
=55	=55	=55	=55	=55	=55
8AA\L	8E/L	4a/	4cc#\	4cc#\	.
8A\	8e/	.	.	.	.
8E\	8c#/	4a/	4cc#\	4cc#\	6 4
8C#\J	8A/J	.	.	.	.
8AA\L	8e\L	[4a/	[4cc#\	[4cc#\	.
8A\	8e\	.	.	.	.
8E\	8c#\	16a/LL]	16cc#\LL]	16cc#\LL]	6 4
.	.	16g#/	16b\	16b\	.
8C#\J	8A\J	16a/	16cc#\	16cc#\	.
.	.	16b/JJ	16dd\JJ	16dd\JJ	.
=56	=56	=56	=56	=56	=56
4AA/	4E/	8cc#\L	8ee\L	8ee\L	.
.	.	8cc#\J	8ee\J	8ee\J	.
8r	8r	16cc#/LL	16ee\LL	16ee\LL	.
.	.	16b/	16dd\	16dd\	.
8E\	8e\	16a/	16cc#\	16cc#\	.
.	.	16g#/JJ	16b\JJ	16b\JJ	.
16AA/LL	16e\LL	8a\L	8cc#\L	8cc#\L	.
16BB/	16d\	.	.	.	.
16C#/	16e\	8aa\	8aa\	8aa\	6
16D/JJ	16f#\JJ	.	.	.	.
8E/L	8g#\L	8b\	8b\	8b\	4
8EE/J	8B\J	8gg#\J	8gg#\J	8gg#\J	#
=57	=57	=57	=57	=57	=57
4AA/	4c#\	4aa\	4aa\	(8aa\	.
.	.	.	.	4bbT\	.
4r	4r	4r	4r	.	.
.	.	.	.	8aa\)	.
4AA/	2r	2r	2r	8eee\L	.
.	.	.	.	16ddd\L	.
.	.	.	.	16ccc#\JJ	.
4r	.	.	.	8bb\L	.
.	.	.	.	8aa\J	.
=58	=58	=58	=58	=58	=58
4AA/	1r	1r	1r	(8aa\	.
.	.	.	.	4bbT\	.
4r	.	.	.	.	.
.	.	.	.	8aa\)	.
4AA/	.	.	.	8eee\L	.
.	.	.	.	16ddd\L	.
.	.	.	.	16ccc#\JJ	.
4r	.	.	.	8bb\L	.
.	.	.	.	8aa\J	.
=59	=59	=59	=59	=59	=59
! Tasto solo	!	!	!	!	!
[1E\	1r	2r	2r	(16gg#\LL	.
.	.	.	.	16ee\)	.
.	.	.	.	(16ff#\	.
.	.	.	.	16dd#\JJ)	.
.	.	.	.	4ee\	.
.	.	8cc#\L	8cc#\L	16ee/	.
.	.	.	.	(16ee\LL	.
.	.	8a\	8a\	16cc#\	.
.	.	.	.	16cc#\JJ)	.
.	.	8a\	8a\	(16cc#\LL	.
.	.	.	.	16ee\JJ)	.
.	.	8cc#\J	8cc#\J	16ee/LL	.
.	.	.	.	16ee/JJ	.
=60	=60	=60	=60	=60	=60
1E_\	1r	8cc#\L	8cc#\L	16ee/	.
.	.	.	.	(16ee\LL	.
.	.	8a\	8a\	16cc#\	.
.	.	.	.	16cc#\JJ)	.
.	.	8a\	8a\	(16cc#\LL	.
.	.	.	.	16ee\JJ)	.
.	.	8cc#\J	8cc#\J	16ee/LL	.
.	.	.	.	16ee/JJ	.
.	.	8b/L	8b/L	16ee/	.
.	.	.	.	(16dd\LL	.
.	.	8g#/	8g#/	16b\	.
.	.	.	.	16b\JJ)	.
.	.	8g#/	8g#/	(16b\LL	.
.	.	.	.	16dd\JJ)	.
.	.	8b/J	8b/J	16ee/LL	.
.	.	.	.	16ee/JJ	.
=61	=61	=61	=61	=61	=61
1E_\	1r	8b/L	8b/L	16ee/	.
.	.	.	.	(16dd\LL	.
.	.	8g#/	8g#/	16b\	.
.	.	.	.	16b\JJ)	.
.	.	8g#/	8g#/	(16b\LL	.
.	.	.	.	16dd\JJ)	.
.	.	8b/J	8b/J	16ee/LL	.
.	.	.	.	16ee/JJ	.
.	.	8a/L	8a/L	16ee/	.
.	.	.	.	(16cc#\LL	.
.	.	8f#/	8f#/	16a\	.
.	.	.	.	16a\JJ)	.
.	.	8f#/	8f#/	(16a\LL	.
.	.	.	.	16cc#\JJ)	.
.	.	8a/J	8a/J	16ee/LL	.
.	.	.	.	16ee/JJ	.
=62	=62	=62	=62	=62	=62
1E_\	1r	8a/L	8a/L	16ee/	.
.	.	.	.	(16cc#\LL	.
.	.	8f#/	8f#/	16a\	.
.	.	.	.	16a\JJ)	.
.	.	8f#/	8f#/	(16a\LL	.
.	.	.	.	16cc#\JJ)	.
.	.	8a/J	8a/J	16ee/LL	.
.	.	.	.	16ee/JJ	.
.	.	8g#/L	8g#/L	16ee/	.
.	.	.	.	(16b\LL	.
.	.	8e/	8e/	16e\	.
.	.	.	.	16e\JJ)	.
.	.	8e/	8e/	(16e\LL	.
.	.	.	.	16b\JJ)	.
.	.	8g#/J	8g#/J	16ee/LL	.
.	.	.	.	16ee/JJ	.
=63	=63	=63	=63	=63	=63
1E_\	1r	8g#/L	8g#/L	16ee/	.
.	.	.	.	(16b\LL	.
.	.	8e/	8e/	16e\	.
.	.	.	.	16e\JJ)	.
.	.	8e/	8e/	(16e\LL	.
.	.	.	.	16b\JJ)	.
.	.	8g#/J	8b/J	16ee/LL	.
.	.	.	.	16ee/JJ	.
.	.	8cc#\L	8cc#\L	16ee/	.
.	.	.	.	(16ee\LL	.
.	.	8a\	8a\	16cc#\	.
.	.	.	.	16cc#\JJ)	.
.	.	8a\	8a\	(16cc#\LL	.
.	.	.	.	16ee\JJ)	.
.	.	8cc#\J	8cc#\J	16ee/LL	.
.	.	.	.	16ee/JJ	.
=64	=64	=64	=64	=64	=64
1E_\	1r	8cc#\L	8cc#\L	16ee/	.
.	.	.	.	(16ee\LL	.
.	.	8a\	8a\	16cc#\	.
.	.	.	.	16cc#\JJ)	.
.	.	8a\	8a\	(16cc#\LL	.
.	.	.	.	16ee\JJ)	.
.	.	8cc#\J	8cc#\J	16ee/LL	.
.	.	.	.	16ee/JJ	.
.	.	8b/L	8b/L	16ee/	.
.	.	.	.	(16dd\LL	.
.	.	8g#/	8g#/	16b\	.
.	.	.	.	16b\JJ)	.
.	.	8g#/	8g#/	(16b\LL	.
.	.	.	.	16dd\JJ)	.
.	.	8b/J	8b/J	16ee/LL	.
.	.	.	.	16ee/JJ	.
=65	=65	=65	=65	=65	=65
1E_\	1r	8b/L	8b/L	16ee/	.
.	.	.	.	(16dd\LL	.
.	.	8g#/	8g#/	16b\	.
.	.	.	.	16b\JJ)	.
.	.	8g#/	8g#/	(16b\LL	.
.	.	.	.	16dd\JJ)	.
.	.	8b/J	8b/J	16ee/LL	.
.	.	.	.	16ee/JJ	.
.	.	8a/L	8a/L	16ee/	.
.	.	.	.	(16cc#\LL	.
.	.	8f#/	8f#/	16a\	.
.	.	.	.	16a\JJ)	.
.	.	8f#/	8f#/	(16a\LL	.
.	.	.	.	16cc#\JJ)	.
.	.	8a/J	8a/J	16ee/LL	.
.	.	.	.	16ee/JJ	.
=66	=66	=66	=66	=66	=66
2E_\	1r	8a/L	8a/L	16ee/	.
.	.	.	.	(16cc#\LL	.
.	.	8f#/	8f#/	16a\	.
.	.	.	.	16a\JJ)	.
.	.	8f#/	8f#/	(16a\LL	.
.	.	.	.	16cc#\JJ)	.
.	.	8a/J	8a/J	16ee/LL	.
.	.	.	.	16ee/JJ	.
8E\L]	.	4g#/	4g#/	4e\ 4b\ 4ee/	.
8e\	.	.	.	.	6 4
8B\	.	4r	4r	4r	.
8G#\J	.	.	.	.	.
=67	=67	=67	=67	=67	=67
4E\	1r	1r	1r	16e/LL	#
.	.	.	.	16f#/	.
.	.	.	.	16g#/	.
.	.	.	.	16e/JJ	.
4r	.	.	.	16a\LL	.
.	.	.	.	16b\	.
.	.	.	.	16cc#\	.
.	.	.	.	16a\JJ	.
4E\	.	.	.	16ee\LL	#
.	.	.	.	16ff#\	.
.	.	.	.	16gg#\	.
.	.	.	.	16ee\JJ	.
4r	.	.	.	16aa\LL	.
.	.	.	.	16bb\	.
.	.	.	.	16ccc#\	.
.	.	.	.	16aa\JJ	.
=68	=68	=68	=68	=68	=68
8E\L	2r	1r	1r	4eee\	#
8e\	.	.	.	.	.
8B\	.	.	.	4r	6\ 4
8G#\J	.	.	.	.	.
4E\	4e\	.	.	(16eee\LL	#
.	.	.	.	16gg#\	.
.	.	.	.	16b\)	.
.	.	.	.	16b\JJ	.
4E\	4e\	.	.	(16b\LL	.
.	.	.	.	16gg#\	.
.	.	.	.	16eee\)	.
.	.	.	.	16eee\JJ	.
=69	=69	=69	=69	=69	=69
[4E\	[4e\	2r	2r	(16eee\LL	#
.	.	.	.	16gg#\	.
.	.	.	.	16b\)	.
.	.	.	.	16b\JJ	.
16E\LL]	16e\LL]	.	.	(16b\LL	.
16E\	16e\	.	.	16gg#\	.
16F#\	16f#\	.	.	16eee\)	.
16G#\JJ	16g#\JJ	.	.	16eee\JJ	.
4A\	4a\	4f#/	4f#/	(16eee\LL	6 5
.	.	.	.	16ff#\	.
.	.	.	.	16a\)	.
.	.	.	.	16a\JJ	.
4r	4r	4f#/	4f#/	(16a\LL	.
.	.	.	.	16ff#\	.
.	.	.	.	16eee\)	.
.	.	.	.	16eee\JJ	.
=70	=70	=70	=70	=70	=70
2r	2r	[4f#/	[4f#/	(16eee\LL	.
.	.	.	.	16ff#\	.
.	.	.	.	16a\)	.
.	.	.	.	16a\JJ	.
.	.	16f#/LL]	16f#/LL]	(16a\LL	.
.	.	16e/	16e/	16ff#\	.
.	.	16d/	16d/	16eee\)	.
.	.	16c#/JJ	16c#/JJ	16eee\JJ	.
4D\	4d\	4f#/	4f#/	(16ddd\LL	.
.	.	.	.	16ff#\	.
.	.	.	.	16a\)	.
.	.	.	.	16a\JJ	.
4D\	4d\	4r	4r	(16a\LL	.
.	.	.	.	16ff#\	.
.	.	.	.	16ddd\)	.
.	.	.	.	16ddd\JJ	.
=71	=71	=71	=71	=71	=71
[4D\	[4d\	2r	2r	(16ddd\LL	.
.	.	.	.	16ff#\	.
.	.	.	.	16a\)	.
.	.	.	.	16a\JJ	.
16D\LL]	16d\LL]	.	.	(16a\LL	.
16D\	16d\	.	.	16ff#\	.
16E\	16e\	.	.	16ddd\)	.
16F#\JJ	16f#\JJ	.	.	16ddd\JJ	.
4G#\	4g#\	4e/	4e/	(16ddd\LL	6 5
.	.	.	.	16ee\	.
.	.	.	.	16g#\)	.
.	.	.	.	16g#\JJ	.
4r	4r	4e/	4e/	(16g#\LL	.
.	.	.	.	16ee\	.
.	.	.	.	16ddd\)	.
.	.	.	.	16ddd\JJ	.
=72	=72	=72	=72	=72	=72
2r	2r	[4e/	[4e/	(16ddd\LL	.
.	.	.	.	16ee\	.
.	.	.	.	16g#\)	.
.	.	.	.	16g#\JJ	.
.	.	16e/LL]	16e/LL]	(16g#\LL	.
.	.	16d/	16d/	16ee\	.
.	.	16c#/	16c#/	16ddd\)	.
.	.	16B/JJ	16B/JJ	16ddd\JJ	.
4C#/	4c#\	4e/	4e/	(16ccc#\LL	5+
.	.	.	.	16ee\	.
.	.	.	.	16g#\)	.
.	.	.	.	16g#\JJ	.
4C#/	4c#\	4r	4r	(16g#\LL	.
.	.	.	.	16ee\	.
.	.	.	.	16ccc#\)	.
.	.	.	.	16ccc#\JJ	.
=73	=73	=73	=73	=73	=73
[4C#/	[4c#\	2r	2r	(16ccc#\LL	.
.	.	.	.	16ee\	.
.	.	.	.	16g#\)	.
.	.	.	.	16g#\JJ	.
16C#\LL]	16c#\LL]	.	.	(16g#\LL	.
16C#\	16c#\	.	.	16ee\	.
16D\	16d\	.	.	16ccc#\)	.
16E\JJ	16e\JJ	.	.	16ccc#\JJ	.
4F#\	4f#\	4d/	4d/	(16ccc#\LL	6 5
.	.	.	.	16dd\	.
.	.	.	.	16f#\)	.
.	.	.	.	16f#\JJ	.
4r	4r	4d/	4d/	(16f#\LL	.
.	.	.	.	16dd\	.
.	.	.	.	16ccc#\)	.
.	.	.	.	16ccc#\JJ	.
=74	=74	=74	=74	=74	=74
2r	2r	[4d/	[4d/	(16ccc#\LL	.
.	.	.	.	16dd\	.
.	.	.	.	16f#\)	.
.	.	.	.	16f#\JJ	.
.	.	16d/LL]	16d/LL]	(16f#\LL	.
.	.	16c#/	16c#/	16dd\	.
.	.	16B/	16B/	16ccc#\)	.
.	.	16A/JJ	16A/JJ	16ccc#\JJ	.
4BB/	4B/	4d/	4d/	(16bb\LL	.
.	.	.	.	16dd\	.
.	.	.	.	16f#\)	.
.	.	.	.	16f#\JJ	.
4BB/	4B/	4r	4r	(16f#\LL	.
.	.	.	.	16dd\	.
.	.	.	.	16bb\)	.
.	.	.	.	16bb\JJ	.
=75	=75	=75	=75	=75	=75
[4BB/	[4B/	2r	2r	(16bb\LL	.
.	.	.	.	16dd\	.
.	.	.	.	16f#\)	.
.	.	.	.	16f#\JJ	.
16BB/LL]	16B\LL]	.	.	(16f#\LL	.
16BB/	16B\	.	.	16dd\	.
16C#/	16c#\	.	.	16bb\)	.
16D/JJ	16d\JJ	.	.	16bb\JJ	.
4EE#/	4E#/	4c#/	4c#/	(16bb\LL	6 5
.	.	.	.	16cc#\	.
.	.	.	.	16e#\)	.
.	.	.	.	16e#\JJ	.
4r	4r	4c#/	4c#/	(16e#\LL	.
.	.	.	.	16cc#\	.
.	.	.	.	16bb\)	.
.	.	.	.	16bb\JJ	.
=76	=76	=76	=76	=76	=76
2r	2r	[4c#/	[4c#/	(16bb\LL	.
.	.	.	.	16cc#\	.
.	.	.	.	16e#\)	.
.	.	.	.	16e#\JJ	.
.	.	16c#/LL]	16c#/LL]	(16e#\LL	.
.	.	16c#/	16c#/	16cc#\	.
.	.	16d#/	16d#/	16bb\)	.
.	.	16e#/JJ	16e#/JJ	16bb\JJ	.
4F#\	4f#\	4f#/	4f#/	(16aa\LL	.
.	.	.	.	16cc#\	.
.	.	.	.	16f#\)	.
.	.	.	.	16f#\JJ	.
4F#\	4f#\	4r	4r	(16f#\LL	.
.	.	.	.	16cc#\	.
.	.	.	.	16aa\)	.
.	.	.	.	16aa\JJ	.
=77	=77	=77	=77	=77	=77
[4F#\	[4f#\	2r	2r	(16aa\LL	.
.	.	.	.	16cc#\	.
.	.	.	.	16f#\)	.
.	.	.	.	16f#\JJ	.
16F#\LL]	16f#\LL]	.	.	(16f#\LL	.
16F#\	16f#\	.	.	16cc#\	.
16G#\	16g#\	.	.	16aa\)	.
16A\JJ	16a\JJ	.	.	16aa\JJ	.
4BB/	4B/	4B/	4B/	(16aa\LL	7 #
.	.	.	.	16b\	.
.	.	.	.	16d#\)	.
.	.	.	.	16d#\JJ	.
4r	4r	4B/	4B/	(16d#\LL	.
.	.	.	.	16b\	.
.	.	.	.	16aa\)	.
.	.	.	.	16aa\JJ	.
=78	=78	=78	=78	=78	=78
2r	2r	[4B/	[4B/	(16aa\LL	.
.	.	.	.	16b\	.
.	.	.	.	16d#\)	.
.	.	.	.	16d#\JJ	.
.	.	16B/LL]	16B/LL]	(16d#\LL	.
.	.	16B/	16B/	16b\	.
.	.	16c#/	16c#/	16aa\)	.
.	.	16d#/JJ	16d#/JJ	16aa\JJ	.
4E\	4e\	4e/	4e/	(16gg\LL	.
.	.	.	.	16b\	.
.	.	.	.	16e\)	.
.	.	.	.	16e\JJ	.
4E\	4e\	4r	4r	(16e\LL	.
.	.	.	.	16b\	.
.	.	.	.	16gg\)	.
.	.	.	.	16gg\JJ	.
=79	=79	=79	=79	=79	=79
[4E\	[4e\	2r	2r	(16gg\LL	.
.	.	.	.	16b\	.
.	.	.	.	16e\)	.
.	.	.	.	16e\JJ	.
16E\LL]	16e\LL]	.	.	(16e\LL	.
16E\	16e\	.	.	16b\	.
16F#\	16f#\	.	.	16gg\)	.
16G\JJ	16g\JJ	.	.	16gg\JJ	.
4AA#/	4A#/	4f#/	4f#/	(16ee\LL	6 5
.	.	.	.	16a#\	.
.	.	.	.	16f#\)	.
.	.	.	.	16f#\JJ	.
4r	4r	4f#/	4f#/	(16f#\LL	.
.	.	.	.	16a#\	.
.	.	.	.	16ee\)	.
.	.	.	.	16ee\JJ	.
=80	=80	=80	=80	=80	=80
2r	2r	[4f#/	[4f#/	(16ee\LL	.
.	.	.	.	16a#\	.
.	.	.	.	16f#\)	.
.	.	.	.	16f#\JJ	.
.	.	16f#/LL]	16f#/LL]	(16f#\LL	.
.	.	16e/	16e/	16a#\	.
.	.	16d/	16d/	16ee\)	.
.	.	16c#/JJ	16c#/JJ	16ee\JJ	.
4BB/	4B/	4B/	4B/	(16dd/LL	.
.	.	.	.	16f#/	.
.	.	.	.	16B/)	.
.	.	.	.	16B/JJ	.
4BB/	4B/	4r	4r	(16B/LL	.
.	.	.	.	16f#/	.
.	.	.	.	16dd/)	.
.	.	.	.	16dd/JJ	.
=81	=81	=81	=81	=81	=81
[4BB/	[4B/	2r	2r	(16dd/LL	.
.	.	.	.	16f#/	.
.	.	.	.	16B/)	.
.	.	.	.	16B/JJ	.
16BB/LL]	16B\LL]	.	.	(16B/LL	.
16BB/	16B\	.	.	16f#/	.
16C#/	16c#\	.	.	16dd/)	.
16D/JJ	16d\JJ	.	.	16gg/JJ	.
4E\	4e\	4e/	4e/	(16gg\LL	.
.	.	.	.	16b\	.
.	.	.	.	16e\)	.
.	.	.	.	16e\JJ	.
4r	4r	4e/	4e/	(16e\LL	.
.	.	.	.	16b\	.
.	.	.	.	16gg\)	.
.	.	.	.	16gg\JJ	.
=82	=82	=82	=82	=82	=82
2r	2r	[4e/	[4e/	(16gg\LL	.
.	.	.	.	16b\	.
.	.	.	.	16e\)	.
.	.	.	.	16e\JJ	.
.	.	16e/LL]	16e/LL]	(16e\LL	.
.	.	16e/	16e/	16b\	.
.	.	16d/	16d/	16gg\)	.
.	.	16c#/JJ	16c#/JJ	16aa#\JJ	.
4F#\	4f#\	4f#/	4f#/	(16aa#\LL	#
.	.	.	.	16cc#\	.
.	.	.	.	16e\)	.
.	.	.	.	16e\JJ	.
4F#\	4f#\	4r	4r	(16e\LL	.
.	.	.	.	16cc#\	.
.	.	.	.	16aa#\)	.
.	.	.	.	16aa#\JJ	.
=83	=83	=83	=83	=83	=83
[4F#\	[4f#\	2r	2r	(16aa#\LL	.
.	.	.	.	16cc#\	.
.	.	.	.	16e\)	.
.	.	.	.	16e\JJ	.
16F#\LL]	16f#\LL]	.	.	(16e\LL	.
16F#\	16f#\	.	.	16cc#\	.
16E\	16e\	.	.	16aa#\)	.
16F#\JJ	16f#\JJ	.	.	16bb\JJ	.
4BB/	4B/	4B/	4B/	(16bb\LL	.
.	.	.	.	16dd\	.
.	.	.	.	16f#\)	.
.	.	.	.	16f#\JJ	.
4r	4r	4B/	4B/	(16f#\LL	.
.	.	.	.	16dd\	.
.	.	.	.	16bb\)	.
.	.	.	.	16bb\JJ	.
=84	=84	=84	=84	=84	=84
2r	1r	[4B/	[4B/	(16bb\LL	.
.	.	.	.	16dd\	.
.	.	.	.	16f#\)	.
.	.	.	.	16f#\JJ	.
.	.	16B/LL]	16B/LL]	(16f#\LL	.
.	.	16c#/	16c#/	16dd\	.
.	.	16d/	16d/	16bb\)	.
.	.	16c#/JJ	16c#/JJ	16bb\JJ	.
8BB/L	.	4B/	4B/	4bb\ 4dd\ 4f#\	.
8C#/	.	.	.	.	.
8D/	.	4r	4r	[4ddd\	.
8C#/J	.	.	.	.	.
=85	=85	=85	=85	=85	=85
4BB/	1r	1r	1r	8ddd\L]	.
.	.	.	.	8fff#\J	.
4r	.	.	.	(16dddP/	.
.	.	.	.	16ccc#p\L)	.
.	.	.	.	16bb\L	.
.	.	.	.	16aa#\JJ	.
4BB/	.	.	.	8bb\L	.
.	.	.	.	8ddd\J	.
4r	.	.	.	(16ccc#P/	.
.	.	.	.	16bbp\L)	.
.	.	.	.	16aa#\L	.
.	.	.	.	16gg\JJ	.
=86	=86	=86	=86	=86	=86
4BB/	1r	1r	1r	8ff#\L	.
.	.	.	.	8aa\J	.
4r	.	.	.	(16ggP/	.
.	.	.	.	16ff#p\L)	.
.	.	.	.	16ee\L	.
.	.	.	.	16dd#\JJ	.
8G\L	.	.	.	[2ee\	6
8G\J	.	.	.	.	.
8E/L	.	.	.	.	.
8C#/J	.	.	.	.	.
=87	=87	=87	=87	=87	=87
4AA#/	1r	1r	1r	8ee\L]	6 5
.	.	.	.	8eee\J	.
4r	.	.	.	(16dddP/	.
.	.	.	.	16ccc#p\L)	.
.	.	.	.	16bb\L	.
.	.	.	.	16aa#\JJ	.
4BB/	.	.	.	8bb\L	.
.	.	.	.	8ddd\J	.
4r	.	.	.	(16ccc#P/	.
.	.	.	.	16bbp\L)	.
.	.	.	.	16aa#\L	.
.	.	.	.	16gg\JJ	.
=88	=88	=88	=88	=88	=88
4BB/	1r	1r	1r	8ff#\L	.
.	.	.	.	8aa\J	.
4r	.	.	.	(16ggP/	.
.	.	.	.	16ff#p\L)	.
.	.	.	.	16ee\L	.
.	.	.	.	16dd#\JJ	.
8G\L	.	.	.	[2ee\	.
8G\J	.	.	.	.	.
8E/L	.	.	.	.	.
8C#/J	.	.	.	.	.
=89	=89	=89	=89	=89	=89
4AA#/	1r	1r	1r	(12ee\L]	6 5
.	.	.	.	12ff#\	.
.	.	.	.	12gg#\J	.
4F#\	.	.	.	12aa#\L	#
.	.	.	.	12bb\	.
.	.	.	.	12ccc#\J)	.
4BB/	.	.	.	(12ddd\L	.
.	.	.	.	12ccc#\	.
.	.	.	.	12bb\J	.
4G\	.	.	.	12eee\L	6
.	.	.	.	12aa#\	.
.	.	.	.	12bb\J)	.
=90	=90	=90	=90	=90	=90
4F#\	2r	2r	2r	4.aa#t\	#
4FF#/	.	.	.	.	.
.	.	.	.	8bb\	.
4BB/	4B/	4B/	4B/	4bb\	.
4BB/	4B/	4B/	4B/	4B/	.
=91	=91	=91	=91	=91	=91
[4BB/	[4B/	[4B/	[4B/	[4B/	.
16BB/LL]	16B\LL]	16B/LL]	16B/LL]	16B/LL]	.
16C#/	16c#\	16c#/	16c#/	16c#/	.
16D/	16d\	16d/	16d/	16d/	6
16E/JJ	16e\JJ	16e/JJ	16e/JJ	16e/JJ	.
8F#\L	8f#\L	8f#/L	8f#/L	8f#/L	.
8F#\J	8f#\J	8f#/J	8f#/J	8f#/J	.
16F#\LL	16f#\LL	16f#/LL	16f#/LL	16f#/LL	.
16E\	16e\	16e/	16e/	16e/	.
16D\	16d\	16d/	16d/	16d/	.
16C#\JJ	16c#\JJ	16c#/JJ	16c#/JJ	16c#/JJ	.
=92	=92	=92	=92	=92	=92
4BB/	4B/	8B\L	8B/L	8B/L	.
.	.	16dd\L	16ff#\L	16ff#\L	.
.	.	16cc#\JJ	16ee\JJ	16ee\JJ	.
4r	4r	8dd\L	8ff#\L	8ff#\L	.
.	.	8b\J	8dd\J	8dd\J	.
2r	2r	8cc#\L	8ee\L	8ee\L	.
.	.	16cc#\L	16ee\L	16ee\L	.
.	.	16b\JJ	16dd\JJ	16dd\JJ	.
.	.	8cc#/L	8ee\L	8ee\L	.
.	.	8f#/J	8cc#\J	8cc#\J	.
=93	=93	=93	=93	=93	=93
4B\	4dd\	4b\	4dd\	4dd\	.
4B\	4dd\	4r	4r	4r	.
[4B\	[4dd\	[2dd\	2r	2r	.
16B\LL]	16dd\LL]	.	.	.	.
16A\	16cc#\	.	.	.	.
16G\	16b\	.	.	.	.
16F#\JJ	16a\JJ	.	.	.	.
=94	=94	=94	=94	=94	=94
8E\L	8g\L	8dd/L]	[1gg\	[1gg\	7
8E\J	8g\J	8e/	.	.	.
16E\LL	16g\LL	8g/	.	.	.
16E\	16g\	.	.	.	.
16F#\	16a\	8dd/J	.	.	.
16G\JJ	16b\JJ	.	.	.	.
4A\	4cc#\	[2cc#\	.	.	7
4A\	4cc#\	.	.	.	.
=95	=95	=95	=95	=95	=95
[4A\	[4cc#\	2cc#_\	8gg\L]	8gg\L]	7
.	.	.	8a\	8a\	.
16A\LL]	16cc#\LL]	.	8cc#\	8cc#\	.
16G\	16b\	.	.	.	.
16F#\	16a\	.	8ee\J	8ee\J	.
16E\JJ	16g\JJ	.	.	.	.
8D\L	8f#\L	8cc#/L]	[2ff#\	[2ff#\	7
8D\J	8f#\J	8d/	.	.	.
16D\LL	16f#\LL	8f#/	.	.	.
16D\	16f#\	.	.	.	.
16E\	16g\	8cc#/J	.	.	.
16F#\JJ	16a\JJ	.	.	.	.
=96	=96	=96	=96	=96	=96
4G\	4b\	[1b\	2ff#_\	2ff#_\	7
4G\	4b\	.	.	.	.
[4G\	[4b\	.	8ff#\L]	8ff#\L]	.
.	.	.	8g\	8g\	.
16G\LL]	16b\LL]	.	8b\	8b\	.
16F#\	16a\	.	.	.	.
16E\	16g\	.	8dd\J	8dd\J	.
16D\JJ	16f#\JJ	.	.	.	.
=97	=97	=97	=97	=97	=97
8C#/L	8e\L	8b/L]	[1ee\	[1ee\	7
8C#/J	8e\J	8c#/	.	.	.
16C#\LL	16e\LL	8e/	.	.	.
16C#\	16e\	.	.	.	.
16D\	16f#\	8b/J	.	.	.
16E\JJ	16g\JJ	.	.	.	.
4F#\	4c#\	[2a#/	.	.	7 #
4F#\	4c#\	.	.	.	.
=98	=98	=98	=98	=98	=98
[4F#\	4c#\	2a#/]	8ee\L]	8ee\L]	7 #
.	.	.	8f#\	8f#\	.
16F#\LL]	4f#\	.	8a#\	8a#\	.
16E\	.	.	.	.	.
16D\	.	.	8cc#\J	8cc#\J	.
16C#\JJ	.	.	.	.	.
4BB/	4f#\	4b\	4dd\	4dd\	.
4BB/	4B/	4B/	4B/	4B/	.
=99	=99	=99	=99	=99	=99
[4BB/	[4B/	[4B/	[4B/	[4B/	.
!!  Tie advanced a full beat in conformity with all other parts.  
16BB/LL]	16B\LL]	16B/LL]	16B/LL]	16B/LL]	.
16C#/	16c#\	16c#/	16c#/	16c#/	.
16D/	16d\	16d/	16d/	16d/	6
16E/JJ	16e\JJ	16e/JJ	16e/JJ	16e/JJ	.
8F#\L	8f#\L	8f#/L	8f#/L	8f#/L	.
8F#\J	8f#\J	8f#/J	8f#/J	8f#/J	.
16F#\LL	16f#\LL	16f#/LL	16f#/LL	16f#/LL	.
16E\	16e\	16e/	16e/	16e/	.
16D\	16d\	16d/	16d/	16d/	.
16C#\JJ	16c#\JJ	16c#/JJ	16c#/JJ	16c#/JJ	.
=100	=100	=100	=100	=100	=100
16BB/LL	16B\LL	16B/LL	16B/LL	16B/LL	.
16C#/	16c#\	16c#/	16c#/	16c#/	.
16D/	16d\	16d/	16d/	16d/	.
16E/JJ	16e\JJ	16e/JJ	16e/JJ	16e/JJ	.
8F#/L	8f#/L	8f#/L	8f#/L	8f#/L	#
8FF#/J	8F#/J	8f#/J	8f#/J	8f#/J	.
*>2a	*>2a	*>2a	*>2a	*>2a	*>2a
4BB/	4B/	4B/	4B/	(32ff#\LLL	.
.	.	.	.	32bb\	.
.	.	.	.	32aa\	.
.	.	.	.	32gg\J	.
.	.	.	.	16ff#\)	.
.	.	.	.	16ee\JJ	.
4BB/	4r	4r	4r	16dd\LL	.
.	.	.	.	16cc#\	.
.	.	.	.	16b\	.
.	.	.	.	16ff#\JJ	.
=101	=101	=101	=101	=101	=101
4D\	1r	1r	1r	(32ff#\LLL	6
.	.	.	.	32bb\	.
.	.	.	.	32aa\	.
.	.	.	.	32gg\J	.
.	.	.	.	16ff#\)	.
.	.	.	.	16ee\JJ	.
4BB/	.	.	.	16dd\LL	.
.	.	.	.	16cc#\	.
.	.	.	.	16b\	.
.	.	.	.	16ff#\JJ	.
4D\	.	.	.	(32gg\LLL	6 4
.	.	.	.	32bb\	.
.	.	.	.	32aa\	.
.	.	.	.	32gg\J	.
.	.	.	.	16ff#\)	.
.	.	.	.	16ee\JJ	.
4BB/	.	.	.	16dd\LL	.
.	.	.	.	16cc#\	.
.	.	.	.	16b\	.
.	.	.	.	16ff#\JJ	.
=102	=102	=102	=102	=102	=102
8E\L	1r	1r	1r	16gg\LL	.
.	.	.	.	16bb\	.
8F#\	.	.	.	16gg\	.
.	.	.	.	16ee\JJ	.
8G\	.	.	.	16gg\LL	.
.	.	.	.	16bb\	.
8F#\J	.	.	.	16gg\	.
.	.	.	.	16ee\JJ	.
4E#\	.	.	.	(32gg#\LLL	6 #
.	.	.	.	32ccc#\	.
.	.	.	.	32bb\	.
.	.	.	.	32aa\J	.
.	.	.	.	16gg#\)	.
.	.	.	.	16ff#\JJ	.
4C#/	.	.	.	16ee#\LL	#
.	.	.	.	16dd#\	.
.	.	.	.	16cc#\	.
.	.	.	.	16gg#\JJ	.
=103	=103	=103	=103	=103	=103
4E#\	1r	1r	1r	(32gg#\LLL	6 #
.	.	.	.	32ccc#\	.
.	.	.	.	32bb\	.
.	.	.	.	32aa\J	.
.	.	.	.	16gg#\)	.
.	.	.	.	16ff#\JJ	.
4C#/	.	.	.	16ee#\LL	#
.	.	.	.	16dd#\	.
.	.	.	.	16cc#\	.
.	.	.	.	16gg#\JJ	.
8F#\L	.	.	.	16aa#\LL	#
.	.	.	.	16ccc#\	.
8G#\	.	.	.	16aa#\	.
.	.	.	.	16ff#\JJ	.
8A#\	.	.	.	16aa#\LL	6
.	.	.	.	16ccc#\	.
8G#\J	.	.	.	16aa#\	.
.	.	.	.	16ff#\JJ	.
=104	=104	=104	=104	=104	=104
4F#\	1r	1r	1r	(32aan\LLL	6 n
.	.	.	.	32ddd\	.
.	.	.	.	32ccc#\	.
.	.	.	.	32bb\J	.
.	.	.	.	16aa\)	.
.	.	.	.	16gg\JJ	.
4D\	.	.	.	16ff#\LL	.
.	.	.	.	16ee\	.
.	.	.	.	16dd\	.
.	.	.	.	16aa\JJ	.
4F#\	.	.	.	(32aa\LLL	6
.	.	.	.	32ddd\	.
.	.	.	.	32ccc#\	.
.	.	.	.	32bb\J	.
.	.	.	.	16aa\)	.
.	.	.	.	16gg\JJ	.
4D\	.	.	.	16ff#\LL	.
.	.	.	.	16ee\	.
.	.	.	.	16dd\	.
.	.	.	.	16aa\JJ	.
=105	=105	=105	=105	=105	=105
8G\L	1r	1r	1r	16bb\LL	.
.	.	.	.	16ddd\	.
8A\	.	.	.	16bb\	.
.	.	.	.	16gg\JJ	.
8B\	.	.	.	16bb\LL	6
.	.	.	.	16ddd\	.
8A\J	.	.	.	16bb\	.
.	.	.	.	16gg\JJ	.
4G#\	.	.	.	(32bb\LLL	6 5
.	.	.	.	32eee\	.
.	.	.	.	32ddd\	.
.	.	.	.	32ccc#\J	.
.	.	.	.	16bb\)	.
.	.	.	.	16aa\JJ	.
4E\	.	.	.	16gg#\LL	7
.	.	.	.	16ff#\	.
.	.	.	.	16ee\	.
.	.	.	.	16bb\JJ	.
=106	=106	=106	=106	=106	=106
4G#\	1r	1r	1r	(32bb\LLL	6 5
.	.	.	.	32eee\	.
.	.	.	.	32ddd\	.
.	.	.	.	32ccc#\J	.
.	.	.	.	16bb\)	.
.	.	.	.	16aa\JJ	.
4E\	.	.	.	16gg#\LL	7
.	.	.	.	16ff#\	.
.	.	.	.	16ee\	.
.	.	.	.	16bb\JJ	.
8A\L	.	.	.	16ccc#\LL	.
.	.	.	.	16eee\	.
8B\	.	.	.	16ccc#\	.
.	.	.	.	16aa\JJ	.
8c#\	.	.	.	16ccc#\LL	6
.	.	.	.	16eee\	.
8B\J	.	.	.	16ccc#\	.
.	.	.	.	16aa\JJ	.
=107	=107	=107	=107	=107	=107
4A#\	1r	1r	1r	(32ccc#\LLL	6 5
.	.	.	.	32fff#\	.
.	.	.	.	32eee\	.
.	.	.	.	32ddd\J	.
.	.	.	.	16ccc#\)	.
.	.	.	.	16bb\JJ	.
4F#\	.	.	.	16aa#\LL	#
.	.	.	.	16gg#\	.
.	.	.	.	16ff#\	.
.	.	.	.	16ccc#\JJ	.
4A#\	.	.	.	(32ccc#\LLL	6 5
.	.	.	.	32fff#\	.
.	.	.	.	32eee\	.
.	.	.	.	32ddd\J	.
.	.	.	.	16ccc#\)	.
.	.	.	.	16bb\JJ	.
4F#\	.	.	.	16aa#\LL	#
.	.	.	.	16gg#\	.
.	.	.	.	16ff#\	.
.	.	.	.	16ccc#\JJ	.
=108	=108	=108	=108	=108	=108
8B\L	1r	1r	1r	4ddd\	.
8c#\	.	.	.	.	.
8d\	.	.	.	4r	6
8c#\J	.	.	.	.	.
8B\L	.	.	.	(16ddd\LL	.
.	.	.	.	32fff#\L	.
.	.	.	.	32eee\J	.
8BB\J	.	.	.	16ddd\)	.
.	.	.	.	16bb\JJ	.
8r	.	.	.	4dddT\	.
8B\	.	.	.	.	.
=109	=109	=109	=109	=109	=109
8A\L	1r	1r	1r	(16ccc#\LL	.
.	.	.	.	32eee\L	.
.	.	.	.	32ddd\J	.
8AA\J	.	.	.	16ccc#\)	.
.	.	.	.	16aa\JJ	.
8r	.	.	.	4ccc#t\	.
8A\	.	.	.	.	.
8G/L	.	.	.	(16bb\LL	.
.	.	.	.	32ddd\L	.
.	.	.	.	32ccc#\J	.
8GG/J	.	.	.	16bb\)	.
.	.	.	.	16gg\JJ	.
8r	.	.	.	4bbT\	.
8G\	.	.	.	.	.
=110	=110	=110	=110	=110	=110
8F#/L	1r	1r	1r	(32aa\LLL	6
.	.	.	.	32aa\	.
.	.	.	.	32bb\	.
.	.	.	.	32ccc#\J	.
8FF#/J	.	.	.	16ddd\)	.
.	.	.	.	16aa\JJ	.
8r	.	.	.	16ff#\LL	.
.	.	.	.	16dd\	.
8D\	.	.	.	16ff#\	.
.	.	.	.	16aa\JJ	.
8A\L	.	.	.	16ee\LL	.
.	.	.	.	(32a\L	.
.	.	.	.	32b\J	.
8AA\J	.	.	.	16cc#\	.
.	.	.	.	16dd\JJ	.
8r	.	.	.	16ee\LL)	.
.	.	.	.	16ff#\	.
8c#\	.	.	.	16gg\	6 5
.	.	.	.	16ee\JJ	.
=111	=111	=111	=111	=111	=111
8d\L	1r	1r	1r	(16ff#\LL	.
.	.	.	.	32aa\L	.
.	.	.	.	32gg\J	.
8D\J	.	.	.	16ff#\)	.
.	.	.	.	16dd\JJ	.
8r	.	.	.	16ff#\LL	.
.	.	.	.	16aa\	.
8D\	.	.	.	16ff#\	.
.	.	.	.	16dd\JJ	.
8A\L	.	.	.	16cc#\LL	.
.	.	.	.	(32a\L	.
.	.	.	.	32b\J	.
8AA\J	.	.	.	16cc#\	.
.	.	.	.	16dd\JJ	.
8r	.	.	.	16ee\LL)	.
.	.	.	.	16ff#\	.
8c#\	.	.	.	16gg\	6 5
.	.	.	.	16ee\JJ	.
=112	=112	=112	=112	=112	=112
8d\L	1r	1r	1r	(16ff#\LL	.
.	.	.	.	32aa\L	.
.	.	.	.	32gg\J	.
8D\J	.	.	.	16ff#\)	.
.	.	.	.	16dd\JJ	.
8r	.	.	.	16ff#\LL	.
.	.	.	.	16gg\	.
8D\	.	.	.	16aa\	.
.	.	.	.	16ff#\JJ	.
8A\L	.	.	.	4ff#t\	6 4
8G\	.	.	.	.	.
8A\	.	.	.	4ee\	5 3
8AA\J	.	.	.	.	.
*>2b	*>2b	*>2b	*>2b	*>2b	*>2b
!! RV 210 / Turin: MS Giord.30, Variant A
4BB/	4B/	4B/	4B/	16bb\LL	.
.	.	.	.	16bb\	.
.	.	.	.	16ccc#\	.
.	.	.	.	16ddd\JJ	.
4r	4r	4r	4r	(16ddd\LL	.
.	.	.	.	16ccc#\	.
.	.	.	.	16bb\	.
.	.	.	.	16ddd\JJ)	.
=101	=101	=101	=101	=101	=101
4BB/	1r	1r	8r	16ff#\LL	.
.	.	.	.	16bb\	.
.	.	.	8ff#\L	16ccc#\	.
.	.	.	.	16ddd\JJ	.
4r	.	.	8bb\	(16ddd\LL	.
.	.	.	.	16ccc#\	.
.	.	.	8ff#\J	16bb\	.
.	.	.	.	16ddd\JJ)	.
4E\	.	.	8r	16gg\LL	.
.	.	.	.	16bb\	.
.	.	.	8gg\L	16ccc#\	.
.	.	.	.	16ddd\JJ	.
4r	.	.	8bb\	(16ddd\LL	.
.	.	.	.	16ccc#\	.
.	.	.	8gg\J	16bb\	.
.	.	.	.	16ddd\JJ)	.
=102	=102	=102	=102	=102	=102
4BB/	1r	1r	8r	16ff#\LL	.
.	.	.	.	16bb\	.
.	.	.	8ff#\L	16ccc#\	.
.	.	.	.	16ddd\JJ	.
4r	.	.	8bb\	(16ddd\LL	.
.	.	.	.	16ccc#\	.
.	.	.	8dd\J	16bb\	.
.	.	.	.	16ddd\JJ)	.
4F#\	.	.	8r	16ee\LL	7 #
.	.	.	.	16ee\	.
.	.	.	8cc#\L	16ff#\	.
.	.	.	.	16gg\JJ	.
4r	.	.	8ee\	(16gg\LL	.
.	.	.	.	16ff#\	.
.	.	.	8cc#\J	16ee\	.
.	.	.	.	16gg\JJ)	.
=103	=103	=103	=103	=103	=103
4F#\	1r	1r	8r	16cc#\LL	.
.	.	.	.	16ee\	.
.	.	.	8cc#\L	16ff#\	.
.	.	.	.	16gg\JJ	.
4r	.	.	8ee\	(16gg\LL	.
.	.	.	.	16ff#\	.
.	.	.	8cc#\J	16ee\	.
.	.	.	.	16gg\JJ)	.
4F#\	.	.	8r	16a#\LL	.
.	.	.	.	16ee\	.
.	.	.	8cc#\L	16ff#\	.
.	.	.	.	16gg\JJ	.
4r	.	.	8ee\	(16gg\LL	.
.	.	.	.	16ff#\	.
.	.	.	8cc#\J	16ee\	.
.	.	.	.	16gg\JJ)	.
=104	=104	=104	=104	=104	=104
4F#\	1r	1r	8r	16a#\LL	.
.	.	.	.	16ee\	.
.	.	.	8cc#\L	16ff#\	.
.	.	.	.	16gg\JJ	.
4r	.	.	8ee\	(16gg\LL	.
.	.	.	.	16ff#\	.
.	.	.	8a#\J	16ee\	.
.	.	.	.	16gg\JJ)	.
4BB/	.	.	8r	16f#\LL	.
.	.	.	.	16b\	.
.	.	.	8f#/L	16cc#\	.
.	.	.	.	16dd\JJ	.
4r	.	.	8b/	(16dd\LL	.
.	.	.	.	16cc#\	.
.	.	.	8f#/J	16b\	.
.	.	.	.	16dd\JJ)	.
=105	=105	=105	=105	=105	=105
4BB/	1r	1r	8r	16f#\LL	.
.	.	.	.	16b\	.
.	.	.	8f#/L	16cc#\	.
.	.	.	.	16dd\JJ	.
4r	.	.	8b/	(16dd\LL	.
.	.	.	.	16cc#\	.
.	.	.	8f#/J	16b\	.
.	.	.	.	16dd\JJ)	.
4E\	.	.	8r	16g#\LL	7 #
.	.	.	.	16b\	.
.	.	.	8g#/L	16ccn\	.
.	.	.	.	16dd\JJ	.
4r	.	.	8b/	(16dd\LL	.
.	.	.	.	16cc\	.
.	.	.	8g#/J	16b\	.
.	.	.	.	16dd\JJ)	.
=106	=106	=106	=106	=106	=106
4E\	1r	1r	8r	16e\LL	.
.	.	.	.	16b\	.
.	.	.	8g#/L	16ccn\	.
.	.	.	.	16dd\JJ	.
4r	.	.	8b/	(16dd\LL	.
.	.	.	.	16cc\	.
.	.	.	8g#/J	16b\	.
.	.	.	.	16dd\JJ)	.
4A\	.	.	8r	16a\LL	n
.	.	.	.	16cc\	.
.	.	.	8a\L	16dd\	.
.	.	.	.	16ee\JJ	.
4r	.	.	8ccn\	(16ee\LL	.
.	.	.	.	16dd\	.
.	.	.	8a\J	16cc\	.
.	.	.	.	16ee\JJ)	.
=107	=107	=107	=107	=107	=107
4G\	1r	1r	8r	16a\LL	4+ 2
.	.	.	.	16cc#\	.
.	.	.	8a\L	16dd\	.
.	.	.	.	16ee\JJ	.
4r	.	.	8cc#\	(16ee\LL	.
.	.	.	.	16dd\	.
.	.	.	8a\J	16cc#\	.
.	.	.	.	16ee\JJ)	.
4F#\	.	.	8r	16a\LL	6
.	.	.	.	16dd\	.
.	.	.	8a\L	16ee\	.
.	.	.	.	16ff#\JJ	.
4r	.	.	8dd\	(16ff#\LL	.
.	.	.	.	16ee\	.
.	.	.	8a\J	16dd\	.
.	.	.	.	16ff#\JJ)	.
=108	=108	=108	=108	=108	=108
4BB/	1r	1r	8r	16a\LL	7 #
.	.	.	.	16dd#\	.
.	.	.	8a\L	16ee\	.
.	.	.	.	16ff#\JJ	.
4r	.	.	8dd#\	(16ff#\LL	.
.	.	.	.	16ee\	.
.	.	.	8a\J	16dd#\	.
.	.	.	.	16ff#\JJ)	.
4E\	.	.	8r	16ee\LL	.
.	.	.	.	16gg\	.
.	.	.	8ee\L	16aa\	.
.	.	.	.	16bb\JJ	.
4r	.	.	8gg\	(16bb\LL	.
.	.	.	.	16aa\	.
.	.	.	8ee\J	16gg\	.
.	.	.	.	16bb\JJ)	.
=109	=109	=109	=109	=109	=109
4E\	1r	1r	8r	16ee\LL	.
.	.	.	.	16gg\	.
.	.	.	8ee\L	16aa\	.
.	.	.	.	16bb\JJ	.
4r	.	.	8gg\	(16bb\LL	.
.	.	.	.	16aa\	.
.	.	.	8ee\J	16gg\	.
.	.	.	.	16bb\JJ)	.
4E\	.	.	8r	16dd\LL	#
.	.	.	.	16gg#\	.
.	.	.	8ee\L	16aa\	.
.	.	.	.	16bb\JJ	.
4r	.	.	8gg#\	(16bb\LL	.
.	.	.	.	16aa\	.
.	.	.	8ee\J	16gg#\	.
.	.	.	.	16bb\JJ)	.
=110	=110	=110	=110	=110	=110
4E\	1r	1r	8r	16dd\LL	7
.	.	.	.	16gg#\	.
.	.	.	8ee\L	16aa\	.
.	.	.	.	16bb\JJ	.
4r	.	.	8gg#\	(16bb\LL	.
.	.	.	.	16aa\	.
.	.	.	8ee\J	16gg#\	.
.	.	.	.	16bb\JJ)	.
4AA/	.	.	8r	16ee\LL	n
.	.	.	.	16aa\	.
.	.	.	8ee\L	16bb\	.
.	.	.	.	16cccn\JJ	.
4r	.	.	8aa\	(16ccc\LL	.
.	.	.	.	16bb\	.
.	.	.	8ee\J	16aa\	.
.	.	.	.	16ccc\JJ)	.
=111	=111	=111	=111	=111	=111
4A\	1r	1r	8r	16ee\LL	.
.	.	.	.	16aa\	.
.	.	.	8ee\L	16bb\	.
.	.	.	.	16cccn\JJ	.
4r	.	.	8aa\	(16ccc\LL	.
.	.	.	.	16bb\	.
.	.	.	8ee\J	16aa\	.
.	.	.	.	16ccc\JJ)	.
4F#\	.	.	8r	16ee\LL	7 #
.	.	.	.	16aa#\	.
.	.	.	8ee\L	16bb\	.
.	.	.	.	16ccc#\JJ	.
4r	.	.	8aa#\	(16ccc#\LL	.
.	.	.	.	16bb\	.
.	.	.	8ee\J	16aa#\	.
.	.	.	.	16ccc#\JJ)	.
=112a	=112a	=112a	=112a	=112a	=112a
4F#\	1r	1r	8r	16ee\LL	7 #
.	.	.	.	16aa#\	.
.	.	.	8ee\L	16bb\	.
.	.	.	.	16ccc#\JJ	.
4r	.	.	8aa#\	(16ccc#\LL	.
.	.	.	.	16bb\	.
.	.	.	8ee\J	16aa#\	.
.	.	.	.	16ccc#\JJ)	.
4B\	.	.	2r	(16bb\LL	.
.	.	.	.	16ccc#\J	.
.	.	.	.	[8ddd\J)	.
4E#\	.	.	.	(8ddd\L]	.
.	.	.	.	16ccc#\L	.
.	.	.	.	16bb\JJ)	.
=112b	=112b	=112b	=112b	=112b	=112b
4F#\	1r	1r	1r	(16aa#\LL	#
.	.	.	.	16bb\J	.
.	.	.	.	[8ccc#\J)	.
4E\	.	.	.	(16ccc#\LL]	6\ 4+
.	.	.	.	16bb\J	.
.	.	.	.	8aa#\J)	.
4D\	.	.	.	(12bb\L	6
.	.	.	.	12aan\	.
.	.	.	.	12gg\J	.
4BB/	.	.	.	12ff#\L	.
.	.	.	.	12gg\	.
.	.	.	.	12ee#\J)	.
=112c	=112c	=112c	=112c	=112c	=112c
8F#\L	2r	2r	2r	(4ee#P/	.
8G#\	.	.	.	.	.
8A#\	.	.	.	4ff#p\)	.
8G#\J	.	.	.	.	.
4F#\	[2f#\	[2ee\	[2aa#\	16aa#\LL	.
.	.	.	.	16bb\	.
.	.	.	.	16ccc#\	.
.	.	.	.	16bb\JJ	.
4r	.	.	.	16aa#\LL	.
.	.	.	.	16een\J	.
.	.	.	.	8eeT\J	.
=112d	=112d	=112d	=112d	=112d	=112d
1r	2f#\]	2ee\]	2aa#\]	16aa#\LL	.
.	.	.	.	16bb\	.
.	.	.	.	16ccc#\	.
.	.	.	.	16bb\JJ	.
.	.	.	.	16aa#\LL	.
.	.	.	.	16ee\J	.
.	.	.	.	8eeT\J	.
.	[2B/	[2dd#\	[2aan\	16dd#\LL	.
.	.	.	.	16ee\	.
.	.	.	.	16ff#\	.
.	.	.	.	16ee\JJ	.
.	.	.	.	16dd#\LL	.
.	.	.	.	16a\J	.
.	.	.	.	8aT\J	.
=112e	=112e	=112e	=112e	=112e	=112e
1r	2B/]	2dd#\]	2aa\]	16dd#\LL	.
.	.	.	.	16ee\	.
.	.	.	.	16ff#\	.
.	.	.	.	16ee\JJ	.
.	.	.	.	16dd#\LL	.
.	.	.	.	16a\J	.
.	.	.	.	8aT\J	.
.	[2e\	[2ddn\	[2gg#\	16gg#\LL	.
.	.	.	.	16aa\	.
.	.	.	.	16bb\	.
.	.	.	.	16aa\JJ	.
.	.	.	.	16gg#\LL	.
.	.	.	.	16ddn\J	.
.	.	.	.	8ddT\J	.
=112f	=112f	=112f	=112f	=112f	=112f
1r	2e\]	2dd\]	2gg#\]	16gg#\LL	.
.	.	.	.	16aa\	.
.	.	.	.	16bb\	.
.	.	.	.	16aa\JJ	.
.	.	.	.	16gg#\LL	.
.	.	.	.	16dd\J	.
.	.	.	.	8ddT\J	.
.	[2A/	[2cc#\	[2ggn\	16cc#\LL	.
.	.	.	.	16dd\	.
.	.	.	.	16ee\	.
.	.	.	.	16dd\JJ	.
.	.	.	.	16cc#/LL	.
.	.	.	.	16g/J	.
.	.	.	.	8gT/J	.
=112g	=112g	=112g	=112g	=112g	=112g
1r	2A/]	2cc#\]	2gg\]	16cc#\LL	.
.	.	.	.	16dd\	.
.	.	.	.	16ee\	.
.	.	.	.	16dd\JJ	.
.	.	.	.	16cc#/LL	.
.	.	.	.	16g/J	.
.	.	.	.	8gT/J	.
.	[2d\	[2ccn\	[2ff#\	16ff#\LL	.
.	.	.	.	16gg\	.
.	.	.	.	16aa\	.
.	.	.	.	16gg\JJ	.
.	.	.	.	16ff#\LL	.
.	.	.	.	16ccn\J	.
.	.	.	.	8ccT\J	.
=112h	=112h	=112h	=112h	=112h	=112h
1r	2d\]	2cc\]	2ff#\]	16ff#\LL	.
.	.	.	.	16gg\	.
.	.	.	.	16aa\	.
.	.	.	.	16gg\JJ	.
.	.	.	.	16ff#\LL	.
.	.	.	.	16ccn\J	.
.	.	.	.	8ccT\J	.
.	4G/	4b\	4gg\	(16b\LL	.
.	.	.	.	16dd\	.
.	.	.	.	16cc\	.
.	.	.	.	16b\JJ)	.
.	4r	4r	4r	(16ee\LL	.
.	.	.	.	16gg\	.
.	.	.	.	16ff#\	.
.	.	.	.	16ee\JJ)	.
=112i	=112i	=112i	=112i	=112i	=112i
4D\	1r	1r	1r	(16ff#\LL	.
.	.	.	.	16aa\	.
.	.	.	.	16gg#\	.
.	.	.	.	16ff#\JJ)	.
4E\	.	.	.	(16gg#\LL	#
.	.	.	.	16bb\	.
.	.	.	.	16aa\	.
.	.	.	.	16gg#\JJ)	.
4F#\	.	.	.	(16aa\LL	.
.	.	.	.	16ccc#\	.
.	.	.	.	16bb\	.
.	.	.	.	16aa\JJ)	.
4D\	.	.	.	(16bb\LL	6
.	.	.	.	16ddd\	.
.	.	.	.	16ccc#\	.
.	.	.	.	16bb\JJ)	.
=112j	=112j	=112j	=112j	=112j	=112j
4C#/	1r	2r	2r	(8ee#\L	#
.	.	.	.	8ddd\	.
4r	.	.	.	8ccc#\	.
.	.	.	.	8bb#\J)	.
2r	.	8e#/L	8e#/L	(12ccc#\L	.
.	.	.	.	12bbn\	.
.	.	8f#/	8f#/	.	.
.	.	.	.	12aa\J	.
.	.	8cc#/	8cc#/	12gg\L	.
.	.	.	.	12ff#\	.
.	.	8c#/J	8c#/J	.	.
.	.	.	.	12ee#\J)	.
=112k	=112k	=112k	=112k	=112k	=112k
1r	1r	4f#/	4f#/	(8ff#\L	.
.	.	.	.	8cccn\	.
.	.	4r	4r	8bb\	.
.	.	.	.	8aa#\J)	.
.	.	8d#/L	8d#/L	(12bb\L	.
.	.	.	.	12aan\	.
.	.	8e/	8e/	.	.
.	.	.	.	12gg\J	.
.	.	8b/	8b/	12ff#\L	.
.	.	.	.	12ee\	.
.	.	8B/J	8B/J	.	.
.	.	.	.	12dd#\J)	.
=112l	=112l	=112l	=112l	=112l	=112l
1r	1r	4e/	4e/	(8ee\L	.
.	.	.	.	8bb\	.
.	.	4r	4r	8aa\	.
.	.	.	.	8gg#\J)	.
.	.	8c#/L	8c#/L	(12aa\L	.
.	.	.	.	12ggn\	.
.	.	8d/	8d/	.	.
.	.	.	.	12ff#\J	.
.	.	8a/	8a/	12ee\L	.
.	.	.	.	12dd\	.
.	.	8A/J	8A/J	.	.
.	.	.	.	12cc#\J)	.
=112m	=112m	=112m	=112m	=112m	=112m
1r	1r	4d/	4d/	(8dd\L	.
.	.	.	.	8aa\	.
.	.	4r	4r	8gg\	.
.	.	.	.	8ff#\J)	.
.	.	4G/	4G/	(12gg\L	.
.	.	.	.	12ff#\	.
.	.	.	.	12ee\J	.
.	.	4G#/	4G#/	12dd\L	.
.	.	.	.	12cc#\	.
.	.	.	.	12b\J)	.
=112n	=112n	=112n	=112n	=112n	=112n
1r	1r	4A/	4A/	(8cc#\L	.
.	.	.	.	16b\L	.
.	.	.	.	16a\JJ	.
.	.	4r	4r	32b\LLL	.
.	.	.	.	32cc#\	.
.	.	.	.	32dd\	.
.	.	.	.	32ee\JJJ	.
.	.	.	.	32ff#\LLL	.
.	.	.	.	32gg\	.
.	.	.	.	32aa\	.
.	.	.	.	32ff#\JJJ)	.
.	.	2A/	2A/	4ff#t\	.
.	.	.	.	4ee\	.
*>3	*>3	*>3	*>3	*>3	*>3
=113	=113	=113	=113	=113	=113
4D\	1r	1r	4dd\	16ddd\LL	.
.	.	.	.	16a\ 16d\	.
.	.	.	.	16a\ 16d\	.
.	.	.	.	16ddd\JJ	.
4r	.	.	4dd\	16ddd\LL	.
.	.	.	.	16a\ 16d\	.
.	.	.	.	16a\ 16d\	.
.	.	.	.	16ddd\JJ	.
2r	.	.	[4dd\	(16ddd\LL	.
.	.	.	.	16a\) 16d\	.
.	.	.	.	(16ddd\	.
.	.	.	.	16a\JJ) 16d\	.
.	.	.	16dd\LL]	(16ddd\LL	.
.	.	.	16ee\	16a\) 16d\	.
.	.	.	16ff#\	(16ddd\	.
.	.	.	16gg\JJ	16a\JJ) 16d\	.
=114	=114	=114	=114	=114	=114
1r	1r	1r	8aa\L	16ccc#\LL	.
.	.	.	.	16a\	.
.	.	.	[8aa\J	16a\	.
.	.	.	.	16ccc#\JJ	.
.	.	.	16aa\LL]	16ccc#\LL	.
.	.	.	16gg\	16a\	.
.	.	.	16ff#\	16a\	.
.	.	.	16ee\JJ	16ccc#\JJ	.
.	.	.	8dd\L	(16bb\LL	.
.	.	.	.	16a\)	.
.	.	.	8dd\J	(16bb\	.
.	.	.	.	16a\JJ)	.
.	.	.	16dd\LL	(16bb\LL	.
.	.	.	16ee\	16a\)	.
.	.	.	16ff#\	(16bb\	.
.	.	.	16gg\JJ	16a\JJ)	.
=115	=115	=115	=115	=115	=115
1r	1r	4a/	1aa\	16aa\LL	.
.	.	.	.	16a\	.
.	.	.	.	16a\	.
.	.	.	.	16aa\JJ	.
.	.	4a/	.	16aa\LL	.
.	.	.	.	16a\	.
.	.	.	.	16a\	.
.	.	.	.	16aa\JJ	.
.	.	[4a/	.	(16aa\LL	.
.	.	.	.	16a\)	.
.	.	.	.	(16aa\	.
.	.	.	.	16a\JJ)	.
.	.	16a\LL]	.	(16aa\LL	.
.	.	16b\	.	16a\)	.
.	.	16cc#\	.	(16aa\	.
.	.	16dd\JJ	.	16a\JJ)	.
=116	=116	=116	=116	=116	=116
1r	1r	8ee\L	1gg\	16gg\LL	.
.	.	.	.	16a\	.
.	.	8ee\J	.	16a\	.
.	.	.	.	16gg\JJ	.
.	.	16ee\LL	.	16gg\LL	.
.	.	16dd\	.	16a\	.
.	.	16cc#\	.	16a\	.
.	.	16b\JJ	.	16gg\JJ	.
.	.	8a/L	.	(16gg\LL	.
.	.	.	.	16a\)	.
.	.	8a/J	.	(16gg\	.
.	.	.	.	16a\JJ)	.
.	.	16a\LL	.	(16gg\LL	.
.	.	16a\	.	16a\)	.
.	.	16b\	.	(16gg\	.
.	.	16cc#\JJ	.	16a\JJ)	.
=117	=117	=117	=117	=117	=117
1r	4d\	1dd\	1ff#\	16ff#\LL	.
.	.	.	.	16a\	.
.	.	.	.	16a\	.
.	.	.	.	16ff#\JJ	.
.	4d\	.	.	16ff#\LL	.
.	.	.	.	16a\	.
.	.	.	.	16a\	.
.	.	.	.	16ff#\JJ	.
.	[4d\	.	.	(16ff#\LL	.
.	.	.	.	16a\)	.
.	.	.	.	(16ff#\	.
.	.	.	.	16a\JJ)	.
.	16d\LL]	.	.	(16ff#\LL	.
.	16e\	.	.	16a\)	.
.	16f#\	.	.	(16ff#\	.
.	16g\JJ	.	.	16a\JJ)	.
=118	=118	=118	=118	=118	=118
1r	8a\L	2cc#\	2ee\	16ee\LL	.
.	.	.	.	16a\	.
.	8a\J	.	.	16a\	.
.	.	.	.	16ee\JJ	.
.	16a\LL	.	.	16ee\LL	.
.	16g\	.	.	16a\	.
.	16f#\	.	.	16a\	.
.	16e\JJ	.	.	16ee\JJ	.
.	8d\L	2dd\	2ff#\	(16ff#\LL	.
.	.	.	.	16a\)	.
.	8d\J	.	.	(16ff#\	.
.	.	.	.	16a\JJ)	.
.	16d\LL	.	.	(16ff#\LL	.
.	16e\	.	.	16a\)	.
.	16f#\	.	.	(16ff#\	.
.	16g\JJ	.	.	16a\JJ)	.
=119	=119	=119	=119	=119	=119
4AA/	1a\	[1cc#\	4ee\	16ee\LL	.
.	.	.	.	16a\	.
.	.	.	.	16a\	.
.	.	.	.	16ee\JJ	.
4AA/	.	.	4ee\	16ee\LL	.
.	.	.	.	16a\	.
.	.	.	.	16a\	.
.	.	.	.	16aa\JJ	.
[4AA/	.	.	[4ee\	(16aa\LL	.
.	.	.	.	16a\)	.
.	.	.	.	(16aa\	.
.	.	.	.	16a\JJ)	.
16AA/LL]	.	.	16ee\LL]	(16aa\LL	.
16BB/	.	.	16dd\	16a\)	.
16C#/	.	.	16ee\	(16aa\	6
16D/JJ	.	.	16ff#\JJ	16a\JJ)	.
=120	=120	=120	=120	=120	=120
8E\L	1e\	1cc#\]	8gg\L	16gg\LL	.
.	.	.	.	16a\	.
8E\J	.	.	8gg\J	16a\	.
.	.	.	.	16gg\JJ	.
16E/LL	.	.	16gg\LL	16gg\LL	.
16D/	.	.	16ff#\	16a\	.
16C#/	.	.	16ee\	16a\	.
16BB/JJ	.	.	16dd\JJ	16gg\JJ	.
8AA/L	.	.	8ee\L	(16gg\LL	7
.	.	.	.	16a\)	.
8AA/J	.	.	8ee\J	(16gg\	.
.	.	.	.	16a\JJ)	.
16AA/LL	.	.	16ee\LL	(16gg\LL	.
16AA/	.	.	16cc#\	16a\)	.
16BB/	.	.	16dd\	(16gg\	.
16C#/JJ	.	.	16ee\JJ	16a\JJ)	.
=121	=121	=121	=121	=121	=121
4D\	4f#\	4dd\	4a/	4ff#/ 4a/ 4d/	.
4r	4r	8r	8r	8r	.
.	.	8dd\	8dd\	8bb-\	.
2r	2r	8dd\L	8dd\L	8gg#\	.
.	.	8ccn\J	8ccn\J	4aa\	.
.	.	8r	8r	.	.
.	.	8g/	8g/	8bb-\	.
*>4a	*>4a	*>4a	*>4a	*>4a	*>4a
=122	=122	=122	=122	=122	=122
1r	1r	8g/L	8g/L	(8cc#\L	.
.	.	8fn/J	8fn/J	8dd\	.
.	.	8r	8r	8gg#\	.
.	.	8ccn\	8ccn\	8aa\J)	.
.	.	8cc\L	8cc\L	(8ff#\	.
.	.	8b-\J	8b-\J	4ggn\	.
.	.	8r	8r	.	.
.	.	8f/	8f/	8aa\)	.
=123	=123	=123	=123	=123	=123
1r	1r	8fn/L	8fn/L	(8b\L	.
.	.	8e/J	8e/J	8ccn\	.
.	.	8r	8r	8ff#\	.
.	.	8b-\	8b-\	8gg\J)	.
.	.	8b-/L	8b-/L	(8ee\	.
.	.	8a/J	8a/J	4ffn\	.
.	.	8r	8r	.	.
.	.	8e-/	8e-/	8gg\)	.
=124	=124	=124	=124	=124	=124
1r	1r	8e-/L	8e-/L	(8a\L	.
.	.	8d/J	8d/J	8b-\	.
.	.	8r	8r	8ee\	.
.	.	8a/	8a/	8ffn\J)	.
.	.	8a/L	8a/L	(8dd\L	.
.	.	8g/J	8g/J	8ee-\	.
.	.	8r	8r	8ff#\	.
.	.	8g/	8g/	8gg\J)	.
=125	=125	=125	=125	=125	=125
1r	1r	8g/L	8g/L	(8cc#\L	.
.	.	8fn/J	8fn/J	8dd\	.
.	.	8r	8r	8gg#\	.
.	.	8d/	8d/	8aa\J)	.
.	.	4A/	4A/	(4b-\	.
.	.	4r	4r	8a/L)	.
.	.	.	.	8a/J	.
=126	=126	=126	=126	=126	=126
1r	1r	4A/	4A/	(12g\L	.
.	.	.	.	12b-\	.
.	.	.	.	12ee\J)	.
.	.	4r	4r	(12bb-\L	.
.	.	.	.	12gg\	.
.	.	.	.	12ee\J)	.
.	.	4A/	4A/	(4dd\	.
.	.	4r	4r	8cc#\L)	.
.	.	.	.	8a\J	.
=127	=127	=127	=127	=127	=127
1r	1r	4A/	4A/	(12g\L	.
.	.	.	.	12b-\	.
.	.	.	.	12ee\J)	.
.	.	4r	4r	(12bb-\L	.
.	.	.	.	12gg\	.
.	.	.	.	12ee\J)	.
.	.	4A/	4A/	[4ccc#\	.
.	.	4r	4r	(12ccc#\L]	.
.	.	.	.	12ddd\	.
.	.	.	.	12cccn\J)	.
=128	=128	=128	=128	=128	=128
1r	1r	2r	2r	(12bb-\L	.
.	.	.	.	12aa\	.
.	.	.	.	12gg\J	.
.	.	.	.	12ffn\L	.
.	.	.	.	12ee\	.
.	.	.	.	12dd\J)	.
.	.	4A/	4A/	(12a\L	.
.	.	.	.	12dd\	.
.	.	.	.	12gg\J	.
.	.	4r	4r	12ff\L	.
.	.	.	.	12ee\	.
.	.	.	.	12dd\J)	.
=129	=129	=129	=129	=129	=129
1r	1r	4r	4r	(12bb-\L	.
.	.	.	.	12ccc#\	.
.	.	.	.	12ddd\J	.
.	.	4d/	4d/	12ffn\L	.
.	.	.	.	12ee\	.
.	.	.	.	12dd\J)	.
.	.	4a/	4a/	[4ff\	.
.	.	4A/	4A/	(16ff\LL]	.
.	.	.	.	16ee\	.
.	.	.	.	16dd\	.
.	.	.	.	16ee\JJ)	.
=130	=130	=130	=130	=130	=130
1r	1r	4d/	4d/	([4dd\	.
.	.	4r	4r	12dd\L]	.
.	.	.	.	12ddd\	.
.	.	.	.	12cccn\J)	.
.	.	2r	2r	(12bb-\L	.
.	.	.	.	12aa\	.
.	.	.	.	12gg\J	.
.	.	.	.	12ffn\L	.
.	.	.	.	12ee\	.
.	.	.	.	12dd\J)	.
=131	=131	=131	=131	=131	=131
1r	1r	4A/	4A/	(12a\L	.
.	.	.	.	12dd\	.
.	.	.	.	12gg\J	.
.	.	4r	4r	12ffn\L	.
.	.	.	.	12ee\	.
.	.	.	.	12dd\J)	.
.	.	4r	4r	(12bbn\L	.
.	.	.	.	12ccc#\	.
.	.	.	.	12ddd\J	.
.	.	4d/	4d/	12ff\L	.
.	.	.	.	12ee\	.
.	.	.	.	12dd\J)	.
=132	=132	=132	=132	=132	=132
2r	2r	4a/	4a/	4a/	.
.	.	4A/	4A/	4eeT\	.
8D\L	8f#\L	4dd\	4ff#\	4ff#\	.
8d\	8a\	.	.	.	.
8A\	8f#\	4dd\	4ff#\	4ff#\	6 4
8F#\J	8d\J	.	.	.	.
*>4b	*>4b	*>4b	*>4b	*>4b	*>4b
!! RV 210 / Turin: MS Giord.30, Variant B
=122	=122	=122	=122	=122	=122
1r	1r	1r	8g/L	(16cc#\LL	.
.	.	.	.	16dd\)	.
.	.	.	8fn/J	(16dd\	.
.	.	.	.	16gg#\JJ)	.
.	.	.	8r	(16gg#\LL	.
.	.	.	.	16aa\)	.
.	.	.	8ccn\	(16aa\	.
.	.	.	.	16ggn\JJ)	.
.	.	.	8cc\L	(8ff#\	.
.	.	.	8b-\J	4gg\	.
.	.	.	8r	.	.
.	.	.	8f/	8aa\)	.
=123	=123	=123	=123	=123	=123
1r	1r	1r	8fn/L	(16b\LL	.
.	.	.	.	16ccn\)	.
.	.	.	8e/J	(16cc\	.
.	.	.	.	16ff#\JJ)	.
.	.	.	8r	(16ff#\LL	.
.	.	.	.	16gg\)	.
.	.	.	8b-\	(16gg\	.
.	.	.	.	16ffn\JJ)	.
.	.	.	8b-/L	(8ee\	.
.	.	.	8a/J	4ff\	.
.	.	.	8r	.	.
.	.	.	8e-/	8gg\)	.
=124	=124	=124	=124	=124	=124
1r	1r	1r	8e-/L	(16a\LL	.
.	.	.	.	16b-\)	.
.	.	.	8d/J	(16b-\	.
.	.	.	.	16een\JJ)	.
.	.	.	8r	(16ee\LL	.
.	.	.	.	16ffn\)	.
.	.	.	8a/	(16ff\	.
.	.	.	.	16dd\JJ)	.
.	.	.	8a/L	(16dd\LL	.
.	.	.	.	16ee-\)	.
.	.	.	8g/J	(16ee-\	.
.	.	.	.	16ff#\JJ)	.
.	.	.	8r	(16ff#\LL	.
.	.	.	.	16gg\)	.
.	.	.	8g/	(16gg\	.
.	.	.	.	16cc#\JJ)	.
=125	=125	=125	=125	=125	=125
1r	1r	4r	8g/L	(16cc#\LL	.
.	.	.	.	16dd\)	.
.	.	.	8f#/J	(16dd\	.
.	.	.	.	16gg#\JJ)	.
.	.	8r	8r	(16gg#\LL	.
.	.	.	.	16aa\)	.
.	.	8c#/	8c#/	(16aa\	.
.	.	.	.	16b-\JJ)	.
.	.	8d/L	8d/L	(4b-\	.
.	.	8e/	8e/	.	.
.	.	8fn/	8fn/	8a/L)	.
.	.	8d/J	8d/J	8a/J	.
=126	=126	=126	=126	=126	=126
1r	1r	8g/L	8g/L	(24bb-\LL	.
.	.	.	.	24aa\	.
.	.	.	.	24gg\JJ)	.
.	.	8fn/	8fn/	(24gg\LL	.
.	.	.	.	24ffn\	.
.	.	.	.	24ee\JJ)	.
.	.	8g/	8g/	(24ee\LL	.
.	.	.	.	24ff\	.
.	.	.	.	24gg\JJ)	.
.	.	8G/J	8G/J	(24gg\LL	.
.	.	.	.	24aa\	.
.	.	.	.	24bb-\JJ)	.
.	.	8A/L	8A/L	8cc#\L	.
.	.	8a/	8a/	8a\J	.
.	.	8f/	8f/	8r	.
.	.	8e/J	8e/J	8bb-\	.
=127	=127	=127	=127	=127	=127
1r	1r	8d/L	8d/L	(24ddd\LL	.
.	.	.	.	24aa\	.
.	.	.	.	24gg\JJ	.
.	.	8d/	8d/	24ffn\LL	.
.	.	.	.	24ee\	.
.	.	.	.	24dd\JJ)	.
.	.	8e/	8e/	(24ddd\LL	.
.	.	.	.	24aa\	.
.	.	.	.	24gg\JJ	.
.	.	8e/J	8e/J	24ff\LL	.
.	.	.	.	24ee\	.
.	.	.	.	24dd\JJ)	.
.	.	8fn/L	8fn/L	(24a\LL	.
.	.	.	.	24dd\	.
.	.	.	.	24ee\JJ	.
.	.	8f/	8f/	24ff\LL	.
.	.	.	.	24ee\	.
.	.	.	.	24dd\JJ)	.
.	.	8e/	8e/	(24ddd\LL	.
.	.	.	.	24aa\	.
.	.	.	.	24gg\JJ	.
.	.	8e/J	8e/J	24ff\LL	.
.	.	.	.	24ee\	.
.	.	.	.	24dd\JJ)	.
=128	=128	=128	=128	=128	=128
1r	1r	8d/L	8d/L	(24a\LL	.
.	.	.	.	24dd\	.
.	.	.	.	24ee\JJ	.
.	.	8d/	8d/	24ffn\LL	.
.	.	.	.	24ee\	.
.	.	.	.	24dd\JJ)	.
.	.	8e/	8e/	(24ddd\LL	.
.	.	.	.	24aa\	.
.	.	.	.	24gg\JJ	.
.	.	8e/J	8e/J	24ff\LL	.
.	.	.	.	24ee\	.
.	.	.	.	24dd\JJ)	.
.	.	8fn/L	8fn/L	(24ddd\LL	.
.	.	.	.	24aa\	.
.	.	.	.	24gg\JJ	.
.	.	8f/	8f/	24ff\LL	.
.	.	.	.	24ee\	.
.	.	.	.	24dd\JJ)	.
.	.	8e/	8e/	(24ddd\LL	.
.	.	.	.	24aa\	.
.	.	.	.	24gg\JJ	.
.	.	8e/J	8e/J	24ff\LL	.
.	.	.	.	24ee\	.
.	.	.	.	24dd\JJ)	.
=129	=129	=129	=129	=129	=129
2r	2r	8d/L	8d/L	8ddd\L	.
.	.	8d/	8d/	16dd\L	.
.	.	.	.	16ee\JJ	.
.	.	8a/	8a/	4eet\	.
.	.	8A/J	8A/J	.	.
8D\L	8f#\L	4dd\	4ff#\	4ff#\	.
8d\	8a\	.	.	.	.
8A\	8f#\	4dd\	4ff#\	4ff#\	6 4
8F#\J	8d\J	.	.	.	.
!! N.B. No measures 130-132 in this version.
*>5	*>5	*>5	*>5	*>5	*>5
=133	=133	=133	=133	=133	=133
8D\L	8A\L	[4dd\	[4ff#\	[4ff#\	.
8d\	8a\	.	.	.	.
8A\	8f#\	16dd\LL]	16ff#\LL]	16ff#\LL]	6 4
.	.	16cc#\	16ee\	16ee\	.
8F#\J	8d\J	16dd\	16ff#\	16ff#\	.
.	.	16ee\JJ	16gg\JJ	16gg\JJ	.
4D\	4A/	8ff#\L	8aa\L	8aa\L	.
.	.	8ff#\J	8aa\J	8aa\J	.
8r	8r	16ff#\LL	16aa\LL	16aa\LL	.
.	.	16ee\	16gg\	16gg\	.
8A\	8A/	16dd\	16ff#\	16ff#\	.
.	.	16cc#\JJ	16ee\JJ	16ee\JJ	.
=134	=134	=134	=134	=134	=134
8D/L	8A\L	16dd\LL	8ff#\L	8ff#\L	.
.	.	16aa\	.	.	.
8D/	8a\	16gg\	16ee\L	16ee\L	.
.	.	16ff#\JJ	16dd\JJ	16dd\JJ	.
8GG/	8b\	8gg\L	8ee\L	8ee\L	.
8AA/J	8a\J	8ee\J	8cc#\J	8cc#\J	.
16AA/LL	16c#\LL	4e/	4g/	4g/	7
16BB/	16d\	.	.	.	.
16C#/	16e\	.	.	.	.
16D/JJ	16f#\JJ	.	.	.	.
16E/LL	16g\LL	4e/	4g/	4g/	.
16D/	16f#\	.	.	.	.
16C#/	16e\	.	.	.	.
16BB/JJ	16d\JJ	.	.	.	.
=135	=135	=135	=135	=135	=135
16AA/LL	16c#\LL	4.e/	4.g/	4.g/	7
16BB/	16d\	.	.	.	.
16C#/	16e\	.	.	.	.
16D/JJ	16f#\JJ	.	.	.	.
16E/LL	16g\LL	.	.	.	.
16C#/	16e\	.	.	.	.
16BB/	16d\	8ee\	8aa\	8aa\	.
16AA/JJ	16c#\JJ	.	.	.	.
8D/L	8A\L	16dd\LL	8ff#\L	8ff#\L	.
.	.	16aa\	.	.	.
8D/	8a\	16gg\	16ee\L	16ee\L	.
.	.	16ff#\JJ	16dd\JJ	16dd\JJ	.
8GG/	8b\	8gg\L	8ee\L	8ee\L	6 5
8AA/J	8a\J	8ee\J	8cc#\J	8cc#\J	.
=136	=136	=136	=136	=136	=136
16AA/LL	16c#\LL	4e/	4g/	4g/	7
16BB/	16d\	.	.	.	.
16C#/	16e\	.	.	.	.
16D/JJ	16f#\JJ	.	.	.	.
16E/LL	16g\LL	4e/	4g/	4g/	.
16D/	16f#\	.	.	.	.
16C#/	16e\	.	.	.	.
16BB/JJ	16d\JJ	.	.	.	.
16AA/LL	16c#\LL	4.e/	4.g/	4.g/	.
16BB/	16d\	.	.	.	.
16C#/	16e\	.	.	.	.
16D/JJ	16f#\JJ	.	.	.	.
16E/LL	16g\LL	.	.	.	.
16C#/	16e\	.	.	.	.
16BB/	16d\	8ee\	8aa\	8aa\	.
16AA/JJ	16c#\JJ	.	.	.	.
=137	=137	=137	=137	=137	=137
8D/L	8A\L	16dd\LL	8ff#\L	8ff#\L	.
.	.	16aa\	.	.	.
8DD/	8a\	16gg\	16ee\L	16ee\L	.
.	.	16ff#\JJ	16dd\JJ	16dd\JJ	.
8GG/	8b\	8gg\L	8ee\L	8ee\L	6 5
8AA/J	8a\J	8ee\J	8cc#\J	8cc#\J	.
2D;\	2f#;\	2dd;\	2dd;\	2dd;\	.
==|!	==|!	==|!	==|!	==|!	==|!
*-	*-	*-	*-	*-	*-
!!!CDT: 1678/3/4/-1741/7/28
!!!OCY: Italia
!!!ODE: Count Wenzeslaus von Morzin of Bohemia; Count Wenceslas of Morzin
!!!ODT: 1725///
!!!OPC: Venezia; Venice
!!!AGN: concerto
!!!AST: baroque
!!!AMT: simple quadruple
!!!PPR: Michel-Charles Le Ce`ne
!!!PC#: Le Cene No. 521
!!!PDT: 1725///
!!!PPP: Amsterdam
!!!SCT: RV 210
!!!SMA1: The cooperation of the following libraries is gratefully acknowledged:
!!!SMA2: Saechsische Landesbibliothek, Dresden; Biblioteca Nazionale
!!!SMA3: Universitaria, Turin; Henry Watson Music Library, Manchester.
!!!YOR: New York: Dover Publications, Inc. 1995
!!!AIN: cello cemba viola violn
!!!EEV: 1.0
!!!RDT: 1994/5/10/
!!!YER: 1996/10/31/
!!!YEP: Center for Computer Assisted Research in the Humanities
!!!YEN: United States of America
!!!EFL: 1/3
!!!ENC: Edmund Correia, Jr.
!!!EED: Eleanor Selfridge-Field
